Sejik/pretrain_maze_ant/exp_local/2022.05.11/101053_edl_AntU_skd_80/train.csv
actor_ent,actor_logprob,actor_loss,batch_reward,buffer_size,critic_loss,critic_q1,critic_q2,critic_target_q,episode,episode_length,episode_reward,extr_reward,fps,frame,intr_reward,loss_pred,loss_vae,step,total_time
-1.5239953994750977,2.71864785194397,-5.611439788341523,41.679187622070316,4050.0,3592.12064453125,5.020256408452988,5.766502060890198,42.067969512939456,81.0,50.0,0.0,0.0,1.1904844621986532,4050,41.679187622070316,1.393155460357666,1.3256591057777405,4050.0,41.99972224235535
-1.5239953994750977,2.5595576763153076,-20.1946488571167,38.595354919433596,4100.0,1920.6963452148439,19.063547248840333,20.32958526611328,41.13269668579102,82.0,50.0,0.0,0.0,68.03280390324925,4100,38.595354919433596,1.3317564392089845,1.0261504459381103,4100.0,42.734663248062134
-1.5239953994750977,2.397399787902832,-39.042036361694336,37.93814910888672,4150.0,1223.9016577148439,37.41134239196777,38.30130432128906,44.583109588623046,83.0,50.0,0.0,0.0,68.17481264663267,4150,37.93814910888672,1.3394300842285156,1.0061853766441344,4150.0,43.46807336807251
-1.5239953994750977,2.4486372470855713,-47.75956634521484,36.88781265258789,4200.0,1122.3703369140626,46.46307846069336,46.33502410888672,49.27191925048828,84.0,50.0,0.0,0.0,70.62038050075886,4200,36.88781265258789,1.3066680717468262,0.9770161604881287,4200.0,44.17608428001404
-1.5239953994750977,2.4894701862335205,-53.510103149414064,36.90818328857422,4250.0,1165.1131201171875,51.86221588134766,51.89457015991211,55.76917755126953,85.0,50.0,0.0,0.0,63.553276787037404,4250,36.90818328857422,1.2986204528808594,0.977817153930664,4250.0,44.96282744407654
-1.5239953994750977,2.3846921634674074,-60.96415542602539,36.25668556213379,4300.0,1206.62458984375,59.2966633605957,59.3112760925293,62.05266784667969,86.0,50.0,0.0,0.0,72.62305720564514,4300,36.25668556213379,1.285230793952942,0.9595816206932067,4300.0,45.6513147354126
-1.5239953994750977,2.432538404464722,-69.42028305053711,37.08059753417969,4350.0,1211.9643896484374,67.49828689575196,67.54020431518555,70.17907257080078,87.0,50.0,0.0,0.0,70.34115840170443,4350,37.08059753417969,1.2703431367874145,0.98354642868042,4350.0,46.36213731765747
-1.5239953994750977,2.386063232421875,-75.47688690185547,35.28028335571289,4400.0,1048.9066625976564,73.55157348632812,73.5662271118164,76.10263610839844,88.0,50.0,0.0,0.0,72.53714967995346,4400,35.28028335571289,1.2550628995895385,0.9325467038154602,4400.0,47.051440954208374
-1.5239953994750977,2.4863174819946288,-84.39552612304688,35.923004913330075,4450.0,1001.6669775390625,82.57260284423828,82.57262634277343,84.3652685546875,89.0,50.0,0.0,0.0,62.16909657982102,4450,35.923004913330075,1.2333055830001831,0.9515308451652527,4450.0,47.85569953918457
-1.5239953994750977,2.428179063796997,-92.92651245117187,35.898173065185546,4500.0,971.5765795898437,90.89201568603515,90.92649291992187,92.3071273803711,90.0,50.0,0.0,0.0,75.30401297849772,4500,35.898173065185546,1.225732412338257,0.9510392951965332,4500.0,48.519675493240356
-1.5239953994750977,2.3895478439331055,-101.59489990234376,36.3428515625,4550.0,1039.9242846679688,99.61948333740234,99.64076293945313,100.87103912353516,91.0,50.0,0.0,0.0,67.9443292142032,4550,36.3428515625,1.2014053535461426,0.9644379758834839,4550.0,49.25557279586792
-1.5239953994750977,2.428934392929077,-107.01576629638672,34.163845748901366,4600.0,961.75607421875,105.20918090820312,105.22345550537109,106.887900390625,92.0,50.0,0.0,0.0,70.92230529146211,4600,34.163845748901366,1.2008092498779297,0.9021978759765625,4600.0,49.96057105064392
-1.5239953994750977,2.3645294952392577,-115.39189971923828,34.004585647583006,4650.0,864.2019958496094,113.67589904785156,113.67189270019531,114.61665924072265,93.0,50.0,0.0,0.0,67.94402103552531,4650,34.004585647583006,1.1662178659439086,0.8986349987983704,4650.0,50.69647192955017
-1.5239953994750977,2.41749605178833,-123.95566436767578,34.71341796875,4700.0,919.1247314453125,122.21929901123048,122.21555694580078,123.23619232177734,94.0,50.0,0.0,0.0,69.53320309650655,4700,34.71341796875,1.1661882066726685,0.9188871455192565,4700.0,51.41555428504944
-1.5239953994750977,2.438124713897705,-130.23064178466797,33.40839027404785,4750.0,916.3091284179687,128.40760833740234,128.43686248779298,129.7197637939453,95.0,50.0,0.0,0.0,64.46241870547206,4750,33.40839027404785,1.1384728574752807,0.8823926067352295,4750.0,52.191200733184814
-1.5239953994750977,2.3466158008575437,-138.1241552734375,33.40228370666504,4800.0,851.4448510742187,136.31389465332032,136.34035583496095,137.33364624023437,96.0,50.0,0.0,0.0,67.99521701125455,4800,33.40228370666504,1.119492497444153,0.8827604675292968,4800.0,52.92654752731323
-1.5239953994750977,2.469058198928833,-146.97485900878905,33.68368927001953,4850.0,931.4914672851562,144.99229919433594,144.99709411621095,145.30385070800781,97.0,50.0,0.0,0.0,71.06070319583954,4850,33.68368927001953,1.0812606477737428,0.8918951821327209,4850.0,53.63017177581787
-1.5239953994750977,2.5148848819732668,-154.30964904785156,32.93032745361328,4900.0,889.1606176757813,152.01835876464844,152.02337341308595,152.52805786132814,98.0,50.0,0.0,0.0,69.25997922020963,4900,32.93032745361328,1.062830696105957,0.8708955383300782,4900.0,54.35209035873413
-1.5239953994750977,2.560924367904663,-161.26150573730467,32.04086624145508,4950.0,825.9673229980468,158.69636657714844,158.70586975097658,159.2899005126953,99.0,50.0,0.0,0.0,65.2678714256993,4950,32.04086624145508,1.0431353735923767,0.8460446667671203,4950.0,55.118165016174316
-1.5239953994750977,2.544825162887573,-169.73669860839843,32.873453826904296,5000.0,900.3177075195313,167.35344970703125,167.34947265625,167.85554565429686,100.0,50.0,0.0,0.0,68.28582759875981,5000,32.873453826904296,1.0388796997070313,0.8699546146392823,5000.0,55.85038208961487
-1.5239953994750977,2.493946075439453,-177.08686950683594,32.300516815185546,5050.0,838.3068701171875,174.5774249267578,174.5817498779297,175.01779663085938,101.0,50.0,0.0,0.0,72.56957973597245,5050,32.300516815185546,1.028407599925995,0.8538876581192016,5050.0,56.53937768936157
-1.5239953994750977,2.46584867477417,-185.48952758789062,33.06869705200195,5100.0,876.2045336914063,182.76353881835936,182.77520568847658,183.68733642578124,102.0,50.0,0.0,0.0,69.86545295484127,5100,33.06869705200195,0.996827301979065,0.876735486984253,5100.0,57.25503969192505
-1.5239953994750977,2.548200206756592,-192.2200793457031,31.967811737060547,5150.0,846.5457666015625,189.53876159667968,189.54687438964845,190.19430236816407,103.0,50.0,0.0,0.0,68.31654753128667,5150,31.967811737060547,0.9585432577133178,0.8463735294342041,5150.0,57.98692774772644
-1.5239953994750977,2.540814447402954,-200.4361248779297,31.880390090942385,5200.0,914.9557153320312,197.73876953125,197.7511114501953,198.26531982421875,104.0,50.0,0.0,0.0,68.32611839663875,5200,31.880390090942385,0.9507359886169433,0.8440988230705261,5200.0,58.71871304512024
-1.5239953994750977,2.4438644790649415,-207.0554962158203,31.1665966796875,5250.0,797.6740600585938,204.5937890625,204.61031494140624,205.07625793457032,105.0,50.0,0.0,0.0,70.65376102095202,5250,31.1665966796875,0.9141583275794983,0.8247494435310364,5250.0,59.426390409469604
-1.5239953994750977,2.42736891746521,-214.05110290527344,30.780562744140624,5300.0,850.61185546875,211.89878051757813,211.90656372070313,212.02354125976564,106.0,50.0,0.0,0.0,69.71360985613178,5300,30.780562744140624,0.8645708680152893,0.8151360535621643,5300.0,60.143611431121826
-1.5239953994750977,2.4413992881774904,-220.48822326660155,30.00911964416504,5350.0,782.39673828125,218.08708129882814,218.08338317871093,218.60538024902343,107.0,50.0,0.0,0.0,66.23270597368128,5350,30.00911964416504,0.8670850777626038,0.7930223178863526,5350.0,60.89852714538574
-1.5239953994750977,2.4179915618896484,-227.9149169921875,29.81769966125488,5400.0,818.6041809082031,225.59113891601564,225.59756164550782,225.59889465332031,108.0,50.0,0.0,0.0,71.6038439975608,5400,29.81769966125488,0.8185996985435486,0.78893883228302,5400.0,61.59681415557861
-1.5239953994750977,2.4598000621795655,-233.72565124511718,29.586294860839843,5450.0,750.3955908203125,231.05297485351562,231.05927368164063,232.1002490234375,109.0,50.0,0.0,0.0,67.35197769870123,5450,29.586294860839843,0.8123098111152649,0.7825076508522034,5450.0,62.339184284210205
-1.5239953994750977,2.448824014663696,-242.5815350341797,29.976091690063477,5500.0,816.5409912109375,239.88381103515624,239.9037420654297,239.89735595703124,110.0,50.0,0.0,0.0,69.44057863616933,5500,29.976091690063477,0.7889025473594665,0.7943134188652039,5500.0,63.05922484397888
-1.5239953994750977,2.4764449977874756,-251.02042175292968,31.47605369567871,5550.0,887.9190795898437,248.1290576171875,248.1033801269531,248.73427001953124,111.0,50.0,0.0,0.0,71.09291071655579,5550,31.47605369567871,0.7650197005271911,0.8378530144691467,5550.0,63.76253128051758
-1.5239953994750977,2.4725098419189453,-257.1394281005859,29.690382919311524,5600.0,802.2369018554688,254.10259887695312,254.11692565917969,254.53414367675782,112.0,50.0,0.0,0.0,72.20991073752757,5600,29.690382919311524,0.7801945972442627,0.7863992094993592,5600.0,64.45495843887329
-1.5239953994750977,2.4464907836914063,-263.63579345703124,29.084046630859376,5650.0,789.8282739257812,260.6603173828125,260.67769409179687,260.6867663574219,113.0,50.0,0.0,0.0,65.66128994888372,5650,29.084046630859376,0.7007080507278443,0.7713453269004822,5650.0,65.21644306182861
-1.5239953994750977,2.515267791748047,-270.049306640625,28.788218002319336,5700.0,747.3896435546875,266.8762890625,266.87889770507815,267.3407409667969,114.0,50.0,0.0,0.0,73.28120506522673,5700,28.788218002319336,0.6527740097045899,0.7642623496055603,5700.0,65.89874696731567
-1.5239953994750977,2.512511625289917,-277.5853332519531,28.977692947387695,5750.0,784.8721496582032,274.0673461914063,274.07193969726563,274.3635302734375,115.0,50.0,0.0,0.0,76.20971888755685,5750,28.977692947387695,0.6415457534790039,0.7699971103668213,5750.0,66.5548324584961
-1.5239953994750977,2.4900755786895754,-285.1391333007812,29.049857635498046,5800.0,800.5651879882812,281.8500720214844,281.8566650390625,282.0104553222656,116.0,50.0,0.0,0.0,62.96982231606458,5800,29.049857635498046,0.6347608995437622,0.7722532629966736,5800.0,67.34886431694031
-1.5239953994750977,2.4315071392059324,-290.4233410644531,27.82807731628418,5850.0,731.9259887695313,287.07572509765623,287.0740063476562,287.5190478515625,117.0,50.0,0.0,0.0,66.92618229281354,5850,27.82807731628418,0.6412414956092835,0.7371591329574585,5850.0,68.09595704078674
-1.5239953994750977,2.4656608963012694,-298.5076647949219,29.160347671508788,5900.0,825.4102661132813,294.9952282714844,295.00615478515624,295.51340942382814,118.0,50.0,0.0,0.0,70.88749648038836,5900,29.160347671508788,0.6116620993614197,0.7760693311691285,5900.0,68.80130076408386
-1.5239953994750977,2.4816901683807373,-305.80303955078125,28.485899658203124,5950.0,801.4689282226562,302.43128173828126,302.4249743652344,302.0071862792969,119.0,50.0,0.0,0.0,65.74476015874156,5950,28.485899658203124,0.5338260114192963,0.7590231108665466,5950.0,69.56181955337524
-1.5239953994750977,2.49212290763855,-309.5306774902344,27.586924362182618,6000.0,741.6987573242187,305.74028564453124,305.72750366210937,306.67485961914065,120.0,50.0,0.0,0.0,64.79026406066178,6000,27.586924362182618,0.5903901660442352,0.731722104549408,6000.0,70.33354139328003
-1.5239953994750977,2.614867238998413,-317.86087890625,28.02104835510254,6050.0,773.5712890625,313.597724609375,313.62614013671873,313.85928833007813,121.0,50.0,0.0,0.0,68.85129755754839,6050,28.02104835510254,0.5227122879028321,0.7460600066184998,6050.0,71.05974507331848
-1.5239953994750977,2.5148127555847166,-325.2394274902344,27.945411071777343,6100.0,789.8669384765625,321.2179345703125,321.22615234375,321.33087158203125,122.0,50.0,0.0,0.0,74.61148449726996,6100,27.945411071777343,0.5327115035057068,0.7436133861541748,6100.0,71.72988533973694
-1.5239953994750977,2.469543571472168,-331.770927734375,27.461684646606447,6150.0,752.9806103515625,327.5077270507812,327.51338256835936,327.62614990234374,123.0,50.0,0.0,0.0,69.82051402418338,6150,27.461684646606447,0.49551283836364746,0.7308553433418274,6150.0,72.44600772857666
-1.5239953994750977,2.616776475906372,-338.66774780273437,27.493567962646484,6200.0,775.9267358398438,334.06572509765624,334.04901245117185,334.38203857421877,124.0,50.0,0.0,0.0,66.36615767481484,6200,27.493567962646484,0.5113864433765412,0.7313130831718445,6200.0,73.19940423965454
-1.5239953994750977,2.7002057933807375,-346.1354931640625,28.01136917114258,6250.0,718.0729663085938,341.13929565429686,341.1497021484375,341.72891723632813,125.0,50.0,0.0,0.0,67.82957219687198,6250,28.01136917114258,0.5037976014614105,0.7463238668441773,6250.0,73.93654704093933
-1.5239953994750977,2.5612447834014893,-353.87102172851564,27.4585823059082,6300.0,769.4872680664063,348.5633068847656,348.5711767578125,348.55559326171874,126.0,50.0,0.0,0.0,65.84673485721211,6300,27.4585823059082,0.5031978595256805,0.7305470156669617,6300.0,74.69588732719421
-1.5239953994750977,2.785473985671997,-360.5943920898437,27.761087951660155,6350.0,710.8764868164062,354.5787634277344,354.5664440917969,355.1140563964844,127.0,50.0,0.0,0.0,67.4190780554751,6350,27.761087951660155,0.45759422540664674,0.7404925584793091,6350.0,75.43751811981201
-1.5239953994750977,2.884114217758179,-368.8916967773437,27.52060188293457,6400.0,686.4277734375,362.1504541015625,362.16633544921876,362.44203491210936,128.0,50.0,0.0,0.0,76.08596038229608,6400,27.52060188293457,0.4653666937351227,0.7334002256393433,6400.0,76.09467101097107
-1.5239953994750977,2.774152545928955,-376.5381884765625,27.68456527709961,6450.0,721.5319799804688,370.29326904296875,370.2957116699219,370.16382690429685,129.0,50.0,0.0,0.0,70.02544039871205,6450,27.68456527709961,0.4618513965606689,0.7381847143173218,6450.0,76.80869817733765
-1.5239953994750977,2.815239725112915,-382.26009155273437,27.119735565185547,6500.0,675.9647424316406,376.07265014648436,376.0716931152344,376.7668139648438,130.0,50.0,0.0,0.0,69.92630095338951,6500,27.119735565185547,0.4277040231227875,0.7230218076705932,6500.0,77.52373743057251
-1.5239953994750977,2.8016168594360353,-390.6789270019531,26.941696090698244,6550.0,613.5216369628906,384.18608520507814,384.203974609375,384.365458984375,131.0,50.0,0.0,0.0,75.29600999565562,6550,26.941696090698244,0.38152684926986696,0.7192545700073242,6550.0,78.18778467178345
-1.5239953994750977,2.800126657485962,-396.7308239746094,26.14278953552246,6600.0,650.6958898925782,390.13478271484377,390.11919067382814,390.1835107421875,132.0,50.0,0.0,0.0,66.07415333070568,6600,26.14278953552246,0.3951570558547974,0.6960387372970581,6600.0,78.94451141357422
-1.5239953994750977,2.9003320693969727,-405.3888256835937,27.265851821899414,6650.0,646.9861096191406,397.8847644042969,397.9252233886719,398.2759484863281,133.0,50.0,0.0,0.0,65.11244355467683,6650,27.265851821899414,0.40926509857177734,0.7277234315872192,6650.0,79.71241474151611
-1.5239953994750977,2.874050464630127,-414.84686157226565,28.038997497558594,6700.0,669.8634130859375,407.132509765625,407.1132470703125,407.19044921875,134.0,50.0,0.0,0.0,66.73264138371256,6700,28.038997497558594,0.3719288146495819,0.7508798384666443,6700.0,80.461674451828
-1.5239953994750977,2.944088363647461,-422.09201782226563,27.340866775512694,6750.0,594.9834826660157,413.9055615234375,413.899208984375,414.3990759277344,135.0,50.0,0.0,0.0,63.16464144842259,6750,27.340866775512694,0.36992827415466306,0.7309907507896424,6750.0,81.25325751304626
-1.5239953994750977,2.99145528793335,-430.99654663085937,27.681748580932616,6800.0,619.8242687988281,421.6658044433594,421.68400390625,421.8886962890625,136.0,50.0,0.0,0.0,69.15904801572108,6800,27.681748580932616,0.36982407331466677,0.7407341575622559,6800.0,81.97622966766357
-1.5239953994750977,3.0173644733428957,-439.0070703125,27.47138366699219,6850.0,597.926142578125,429.6039978027344,429.6102661132812,429.6760534667969,137.0,50.0,0.0,0.0,70.5165390825646,6850,27.47138366699219,0.4061840146780014,0.7336843013763428,6850.0,82.68528437614441
-1.5239953994750977,3.0006832122802733,-445.9260778808594,26.877116088867187,6900.0,574.02197265625,436.18712158203124,436.1945959472656,436.4378991699219,138.0,50.0,0.0,0.0,66.182269865234,6900,26.877116088867187,0.35423412442207336,0.7181887984275818,6900.0,83.44077515602112
-1.5239953994750977,3.1024451065063476,-455.3557666015625,27.894916534423828,6950.0,596.9664086914063,444.5959741210938,444.60090576171876,445.25609008789064,139.0,50.0,0.0,0.0,72.10293228282242,6950,27.894916534423828,0.383071591258049,0.7464447498321534,6950.0,84.13422846794128
-1.5239953994750977,3.0258256816864013,-465.8076062011719,27.92659423828125,7000.0,552.7117834472656,454.88707153320314,454.87004028320314,454.9462878417969,140.0,50.0,0.0,0.0,69.72206947498465,7000,27.92659423828125,0.35494156301021573,0.7481554961204528,7000.0,84.85136270523071
-1.5239953994750977,3.0685727977752686,-472.6127502441406,27.2917195892334,7050.0,559.0285241699219,460.43192626953123,460.4694140625,460.6934606933594,141.0,50.0,0.0,0.0,71.79020567755354,7050,27.2917195892334,0.3240442842245102,0.7309118509292603,7050.0,85.54783773422241
-1.5239953994750977,3.114427270889282,-483.84844970703125,28.24344711303711,7100.0,556.1801232910157,471.2929943847656,471.2892053222656,471.5757263183594,142.0,50.0,0.0,0.0,65.98945063437478,7100,28.24344711303711,0.37795892119407654,0.7565580344200135,7100.0,86.30553531646729
-1.5239953994750977,3.1604634666442872,-492.39549072265623,28.39713088989258,7150.0,580.9011389160156,479.5467785644531,479.51344116210936,479.91628295898437,143.0,50.0,0.0,0.0,62.53397820862232,7150,28.39713088989258,0.32623146653175356,0.7624245691299438,7150.0,87.10510206222534
-1.5239953994750977,3.1598535537719727,-501.1629370117187,27.80822914123535,7200.0,513.3556420898437,488.3528955078125,488.3900512695312,488.26228515625,144.0,50.0,0.0,0.0,62.41718863238286,7200,27.80822914123535,0.343893449306488,0.7450883793830871,7200.0,87.90616583824158
-1.5239953994750977,3.159675645828247,-511.03427734375,28.021119918823242,7250.0,529.3413159179687,497.6213330078125,497.6149377441406,498.11842041015626,145.0,50.0,0.0,0.0,66.0657440394715,7250,28.021119918823242,0.32408146500587465,0.7517362523078919,7250.0,88.66298937797546
-1.5239953994750977,3.1844859886169434,-520.5785180664062,28.08355827331543,7300.0,524.9104235839844,506.44859619140624,506.46160888671875,506.77874267578125,146.0,50.0,0.0,0.0,78.43072137196317,7300,28.08355827331543,0.2989425468444824,0.754238531589508,7300.0,89.30049681663513
-1.5239953994750977,3.24560736656189,-531.654462890625,28.0528205871582,7350.0,527.6834545898438,515.9357312011718,515.9409924316407,516.3312353515626,147.0,50.0,0.0,0.0,76.60784448383133,7350,28.0528205871582,0.316051824092865,0.7528739738464355,7350.0,89.95317268371582
-1.5239953994750977,3.26878342628479,-542.5021923828125,28.3318896484375,7400.0,551.88265625,526.655927734375,526.64408203125,526.8064038085937,148.0,50.0,0.0,0.0,72.85592595011555,7400,28.3318896484375,0.2956118077039719,0.7614297580718994,7400.0,90.63945960998535
-1.5239953994750977,3.1770781803131105,-550.1552783203125,27.87704719543457,7450.0,496.96183837890624,535.159228515625,535.1650830078125,535.3809838867187,149.0,50.0,0.0,0.0,71.60303722371067,7450,27.87704719543457,0.3324249404668808,0.7473817253112793,7450.0,91.33775615692139
-1.5239953994750977,3.1989536476135254,-560.375390625,28.640009002685545,7500.0,515.4804345703125,544.515966796875,544.5193408203126,544.7169116210938,150.0,50.0,0.0,0.0,67.24511874941481,7500,28.640009002685545,0.3377983725070953,0.7690272068977356,7500.0,92.08130645751953
-1.5239953994750977,3.292058410644531,-572.2471240234376,29.49179611206055,7550.0,557.761767578125,554.7346240234375,554.7517211914062,555.4523657226563,151.0,50.0,0.0,0.0,67.63450857915582,7550,29.49179611206055,0.2921272623538971,0.7946697878837585,7550.0,92.82057499885559
-1.5239953994750977,3.290346393585205,-584.9145776367187,29.868263778686522,7600.0,535.5144201660156,566.8753149414063,566.8573120117187,567.0271362304687,152.0,50.0,0.0,0.0,66.25042805352217,7600,29.868263778686522,0.2984092026948929,0.8052461695671081,7600.0,93.57528901100159
-1.5239953994750977,3.2543593215942384,-595.80140625,30.298572769165037,7650.0,534.2081311035156,578.2226440429688,578.2399389648438,578.5057153320313,153.0,50.0,0.0,0.0,70.75514253411909,7650,30.298572769165037,0.2949150401353836,0.8176400327682495,7650.0,94.2819516658783
-1.5239953994750977,3.3101758575439453,-605.7482373046874,28.990221557617186,7700.0,451.87852294921873,587.2015576171875,587.199111328125,587.6555786132812,154.0,50.0,0.0,0.0,73.46789209375324,7700,28.990221557617186,0.2890345126390457,0.7804273772239685,7700.0,94.96252274513245
-1.5239953994750977,3.263400535583496,-616.9896142578125,30.434311599731444,7750.0,481.7390295410156,599.4658544921875,599.4817919921875,599.2750927734374,155.0,50.0,0.0,0.0,71.82853917437075,7750,30.434311599731444,0.2701656574010849,0.822225296497345,7750.0,95.65862584114075
-1.5239953994750977,3.34279013633728,-625.3451220703125,29.126651306152343,7800.0,507.27962890625,605.5553759765625,605.5481030273437,605.8529370117187,156.0,50.0,0.0,0.0,74.9525995801958,7800,29.126651306152343,0.28015959143638614,0.7845781993865967,7800.0,96.32571506500244
-1.5239953994750977,3.2836580944061278,-638.9703466796875,30.62868728637695,7850.0,467.47435546875,620.1367822265624,620.1528833007812,620.5384301757813,157.0,50.0,0.0,0.0,65.29064997937438,7850,30.62868728637695,0.30058992177248,0.8269097423553466,7850.0,97.09152293205261
-1.5239953994750977,3.4069583415985107,-649.3243603515625,30.835915985107423,7900.0,512.3855334472656,629.6376733398438,629.6222143554687,630.244619140625,158.0,50.0,0.0,0.0,64.70590413236197,7900,30.835915985107423,0.30925957977771756,0.8325823450088501,7900.0,97.86425113677979
-1.5239953994750977,3.3911470127105714,-663.8292260742187,31.63413757324219,7950.0,536.1226708984375,642.73994140625,642.7182739257812,642.8308349609375,159.0,50.0,0.0,0.0,76.80302824439977,7950,31.63413757324219,0.3194993329048157,0.8550962924957275,7950.0,98.51526808738708
-1.5239953994750977,3.436294689178467,-673.4371826171875,31.160587005615234,8000.0,508.00184448242186,651.8119287109375,651.8575927734375,651.9885107421875,160.0,50.0,0.0,0.0,65.84247615070775,8000,31.160587005615234,0.2977203565835953,0.8421885299682618,8000.0,99.27465724945068
-1.5239953994750977,3.4011466884613037,-683.8164624023437,30.592802505493164,8050.0,494.1477783203125,662.7488500976563,662.7336865234375,663.1458227539063,161.0,50.0,0.0,0.0,74.06285669081333,8050,30.592802505493164,0.2760940617322922,0.8265841770172119,8050.0,99.94976091384888
-1.5239953994750977,3.3778905200958254,-696.1646044921876,31.738136444091797,8100.0,520.6585815429687,675.0685864257813,675.0641455078126,675.6202294921875,162.0,50.0,0.0,0.0,76.12860554627663,8100,31.738136444091797,0.3193829411268234,0.8580711531639099,8100.0,100.6065456867218
-1.5239953994750977,3.4477944660186766,-709.7035107421875,31.64309310913086,8150.0,514.3787902832031,686.6118139648438,686.6181201171875,686.6987255859375,163.0,50.0,0.0,0.0,74.72186206068457,8150,31.64309310913086,0.3308824247121811,0.8550272607803344,8150.0,101.27569532394409
-1.5239953994750977,3.4739443588256838,-722.0643872070312,31.83136749267578,8200.0,465.7807995605469,698.7601391601562,698.7690185546875,698.9203686523438,164.0,50.0,0.0,0.0,74.4510740661718,8200,31.83136749267578,0.30489741802215575,0.861148829460144,8200.0,101.94727945327759
-1.5239953994750977,3.47078405380249,-731.682685546875,31.148404541015626,8250.0,475.93821533203123,709.2171997070312,709.2232666015625,709.49494140625,165.0,50.0,0.0,0.0,73.67732093967084,8250,31.148404541015626,0.3122868973016739,0.8414245915412902,8250.0,102.62591576576233
-1.5239953994750977,3.4224143600463868,-743.9401342773438,31.849633865356445,8300.0,465.42158935546877,721.5696142578125,721.5804418945313,721.935927734375,166.0,50.0,0.0,0.0,71.03263877457425,8300,31.849633865356445,0.25598746836185454,0.8630694341659546,8300.0,103.3298192024231
-1.5239953994750977,3.466810827255249,-757.6040576171876,32.70798439025879,8350.0,511.17943359375,734.7713916015625,734.7665844726563,735.347265625,167.0,50.0,0.0,0.0,65.75733508004599,8350,32.70798439025879,0.29160852670669557,0.8866061305999756,8350.0,104.09019160270691
-1.5239953994750977,3.4929838466644285,-772.2403369140625,33.92145622253418,8400.0,568.2918237304688,749.075390625,749.0711840820312,749.1371704101563,168.0,50.0,0.0,0.0,70.88965305798908,8400,33.92145622253418,0.31617793679237366,0.9205479717254639,8400.0,104.79551386833191
-1.5239953994750977,3.5587190055847167,-782.89408203125,31.672600784301757,8450.0,490.9726501464844,757.3368115234375,757.3484252929687,757.428857421875,169.0,50.0,0.0,0.0,58.555408471853696,8450,31.672600784301757,0.25401579797267915,0.8580668687820434,8450.0,105.64940786361694
-1.5239953994750977,3.4810123443603516,-794.6157275390625,32.12924758911133,8500.0,509.2987158203125,770.1982666015625,770.2039575195313,770.5870922851562,170.0,50.0,0.0,0.0,62.3562594664927,8500,32.12924758911133,0.2442709481716156,0.8713915205001831,8500.0,106.45125389099121
-1.5239953994750977,3.5472617721557618,-810.5299072265625,34.215979690551755,8550.0,497.27139770507813,786.2522436523437,786.2541723632812,786.5950341796874,171.0,50.0,0.0,0.0,59.714201268685315,8550,34.215979690551755,0.25162153363227846,0.9308025550842285,8550.0,107.28857660293579
-1.5239953994750977,3.4964748096466063,-823.3552221679688,33.37118705749512,8600.0,502.8174792480469,797.7069873046875,797.697763671875,798.0839721679688,172.0,50.0,0.0,0.0,60.67579312587593,8600,33.37118705749512,0.26695186257362363,0.9062288093566895,8600.0,108.11263275146484
-1.5239953994750977,3.5476622676849363,-836.2084912109375,33.04898765563965,8650.0,477.011298828125,810.3662866210938,810.3750415039062,810.2154565429687,173.0,50.0,0.0,0.0,61.936867958219125,8650,33.04898765563965,0.2744626593589783,0.8968081259727478,8650.0,108.9199070930481
-1.5239953994750977,3.538046417236328,-849.4615307617188,33.21603294372559,8700.0,482.65990844726565,823.5392333984375,823.5539916992187,823.8673291015625,174.0,50.0,0.0,0.0,65.31692295809088,8700,33.21603294372559,0.2658641624450684,0.901825704574585,8700.0,109.68540620803833
-1.5239953994750977,3.5180553245544433,-862.7680126953124,33.749691543579104,8750.0,498.3627661132812,836.57857421875,836.5770092773438,836.87228515625,175.0,50.0,0.0,0.0,67.63138952598895,8750,33.749691543579104,0.26537390410900114,0.9170866727828979,8750.0,110.42471051216125
-1.5239953994750977,3.5011711502075196,-875.9996118164063,33.26046684265137,8800.0,530.1596264648438,848.47705078125,848.4888793945313,848.6743725585937,176.0,50.0,0.0,0.0,74.49743629456646,8800,33.26046684265137,0.2595295488834381,0.9032756519317627,8800.0,111.09587574005127
-1.5239953994750977,3.5088065242767335,-890.7986547851563,34.71896530151367,8850.0,536.0616711425781,863.4513305664062,863.4391430664062,864.2051123046875,177.0,50.0,0.0,0.0,60.47843423829083,8850,34.71896530151367,0.2623319751024246,0.9448669743537903,8850.0,111.92261815071106
-1.5239953994750977,3.5728431606292723,-901.1141650390625,33.25901107788086,8900.0,521.5559252929687,874.2294067382812,874.2182080078124,874.611455078125,178.0,50.0,0.0,0.0,67.60110822968528,8900,33.25901107788086,0.29470318257808686,0.9022290086746216,8900.0,112.66225218772888
-1.5239953994750977,3.5042346954345702,-914.8118725585938,34.08991416931153,8950.0,565.2521276855468,888.44609375,888.4609130859375,888.6048876953125,179.0,50.0,0.0,0.0,74.01948932724797,8950,34.08991416931153,0.2722011560201645,0.9266120362281799,8950.0,113.33775043487549
-1.5239953994750977,3.5687327575683594,-926.2522119140625,32.50533157348633,9000.0,527.6609460449218,900.3041625976563,900.3118823242188,900.2527270507812,180.0,50.0,0.0,0.0,77.67793513899528,9000,32.50533157348633,0.25584767043590545,0.8818054676055909,9000.0,113.98143410682678
-1.5239953994750977,3.520872039794922,-942.13953125,34.6081307220459,9050.0,531.025654296875,915.9390380859375,915.934658203125,916.3719921875,181.0,50.0,0.0,0.0,68.48379954673999,9050,34.6081307220459,0.23478722512722017,0.942487187385559,9050.0,114.71153473854065
-1.5239953994750977,3.540491247177124,-954.9294921875,35.39797035217285,9100.0,503.75012939453126,928.2632690429688,928.2712109375,928.9189135742188,182.0,50.0,0.0,0.0,66.47044989340776,9100,35.39797035217285,0.28111830532550813,0.9637321376800537,9100.0,115.46374940872192
-1.5239953994750977,3.557812900543213,-969.622265625,35.49581443786621,9150.0,603.0078503417968,942.8770434570313,942.8858569335938,943.2139282226562,183.0,50.0,0.0,0.0,69.64901367605559,9150,35.49581443786621,0.24398374766111375,0.9675869870185853,9150.0,116.181636095047
-1.5239953994750977,3.534196367263794,-984.9814721679687,35.231958618164064,9200.0,587.7265710449219,958.492490234375,958.494638671875,958.5791186523437,184.0,50.0,0.0,0.0,66.412415593151,9200,35.231958618164064,0.25700373828411105,0.9596800637245179,9200.0,116.93450832366943
-1.5239953994750977,3.593291883468628,-1001.407841796875,36.47868988037109,9250.0,569.8222839355469,972.3849658203125,972.3892236328124,972.46638671875,185.0,50.0,0.0,0.0,68.43838642009312,9250,36.47868988037109,0.2879101926088333,0.9944146633148193,9250.0,117.66509342193604
-1.5239953994750977,3.567133731842041,-1012.4015234375,34.90654991149902,9300.0,548.2347766113281,985.0381494140624,985.0366918945313,985.22361328125,186.0,50.0,0.0,0.0,82.45975708966859,9300,34.90654991149902,0.24265728414058685,0.9507885527610779,9300.0,118.2714512348175
-1.5239953994750977,3.5850883960723876,-1027.6534228515625,36.805846786499025,9350.0,520.5051647949218,1000.8229516601563,1000.830546875,1001.0798583984375,187.0,50.0,0.0,0.0,71.68586297951614,9350,36.805846786499025,0.24582105219364167,1.0049653434753418,9350.0,118.96894001960754
-1.5239953994750977,3.548577165603638,-1037.6335986328124,35.707704849243164,9400.0,509.46037719726564,1010.4325024414062,1010.4394189453125,1010.8600170898437,188.0,50.0,0.0,0.0,74.72740016312696,9400,35.707704849243164,0.26656135499477385,0.9729961347579956,9400.0,119.63804030418396
-1.5239953994750977,3.5180179405212404,-1052.954482421875,37.46699012756348,9450.0,523.8589819335938,1026.2360278320311,1026.2286669921875,1026.6924829101563,189.0,50.0,0.0,0.0,54.93565109876437,9450,37.46699012756348,0.2883780825138092,1.0226378631591797,9450.0,120.54819774627686
-1.5239953994750977,3.5576154613494873,-1066.1545654296874,37.022502746582035,9500.0,513.5403881835938,1039.2846728515624,1039.2805517578124,1039.6162548828124,190.0,50.0,0.0,0.0,75.09291044682594,9500,37.022502746582035,0.28844997346401213,1.0099360370635986,9500.0,121.21404004096985
-1.5239953994750977,3.592917633056641,-1079.2294384765626,36.135337829589844,9550.0,548.5839575195313,1052.0300146484376,1052.03626953125,1052.1936474609374,191.0,50.0,0.0,0.0,64.70999710878051,9550,36.135337829589844,0.25364205449819566,0.9855829524993897,9550.0,121.98672032356262
-1.5239953994750977,3.561671495437622,-1091.7572900390626,36.69039176940918,9600.0,542.3453576660156,1064.5017626953124,1064.513994140625,1064.6780712890625,192.0,50.0,0.0,0.0,66.90013557699976,9600,36.69039176940918,0.24962244987487792,1.0015565848350525,9600.0,122.73410367965698
-1.5239953994750977,3.522989559173584,-1106.2007275390624,37.7973274230957,9650.0,611.0143200683593,1080.83759765625,1080.8283251953126,1080.8858056640624,193.0,50.0,0.0,0.0,71.14145777516043,9650,37.7973274230957,0.2678676727414131,1.0326618790626525,9650.0,123.43693017959595
-1.5239953994750977,3.6313915348052976,-1120.7924365234376,36.947903900146486,9700.0,556.1849548339844,1093.0561376953126,1093.0786328125,1093.7080078125,194.0,50.0,0.0,0.0,75.81433954842946,9700,36.947903900146486,0.25454774022102356,1.0087732934951783,9700.0,124.09643721580505
-1.5239953994750977,3.580798349380493,-1132.4743798828124,37.290895538330076,9750.0,518.460673828125,1104.82283203125,1104.8064892578125,1105.3267236328124,195.0,50.0,0.0,0.0,80.27511276744949,9750,37.290895538330076,0.2831427571177483,1.0177569675445557,9750.0,124.71929574012756
-1.5239953994750977,3.5292360401153564,-1147.9834228515624,38.00863891601563,9800.0,547.9132543945312,1122.0434521484376,1122.046484375,1122.25986328125,196.0,50.0,0.0,0.0,80.14874406428251,9800,38.00863891601563,0.28560903131961823,1.0382512211799622,9800.0,125.34313726425171
-1.5239953994750977,3.5231395053863523,-1157.0257861328125,37.197176971435546,9850.0,568.72912109375,1130.0978369140626,1130.1060986328125,1129.84359375,197.0,50.0,0.0,0.0,72.68472435181154,9850,37.197176971435546,0.22908881902694703,1.016661684513092,9850.0,126.0310411453247
-1.5239953994750977,3.553100881576538,-1173.4507763671875,37.91869720458985,9900.0,572.4176794433594,1146.3153271484375,1146.327158203125,1146.54201171875,198.0,50.0,0.0,0.0,72.21428699327977,9900,37.91869720458985,0.25895707309246063,1.036386787891388,9900.0,126.72342610359192
-1.5239953994750977,3.5217823028564452,-1189.209931640625,38.851924438476566,9950.0,621.3748840332031,1162.0060791015626,1162.015126953125,1162.639853515625,199.0,50.0,0.0,0.0,74.60723755150889,9950,38.851924438476566,0.2917720028758049,1.0621103572845458,9950.0,127.3936038017273
-1.5239953994750977,3.5681628131866456,-1205.79634765625,39.30419479370117,10000.0,622.719521484375,1178.8125634765624,1178.8127294921876,1178.580107421875,200.0,50.0,0.0,0.0,70.53551308259894,10000,39.30419479370117,0.25797350525856017,1.0759980058670044,10000.0,128.10246801376343
-1.5239953994750977,3.5978506565093995,-1217.1711181640626,37.812501678466795,10050.0,603.5227966308594,1188.372685546875,1188.3583447265626,1188.9873193359374,201.0,50.0,0.0,0.0,1.9050226200724942,10050,37.812501678466795,0.25060392200946807,1.0335886669158936,10050.0,154.34887599945068
-1.5239953994750977,3.6234606552124022,-1233.0436328125,39.32991470336914,10100.0,605.1310144042968,1204.6355126953124,1204.651640625,1205.05783203125,202.0,50.0,0.0,0.0,78.0040446089796,10100,39.32991470336914,0.30426892042160036,1.0754101181030273,10100.0,154.9898693561554
-1.5239953994750977,3.584113883972168,-1248.4158349609374,39.927813110351565,10150.0,635.6310168457031,1220.2176123046875,1220.228671875,1220.554228515625,203.0,50.0,0.0,0.0,71.27061158462814,10150,39.927813110351565,0.3006871497631073,1.0925952744483949,10150.0,155.6914222240448
-1.5239953994750977,3.5768875217437746,-1260.38544921875,39.926714782714846,10200.0,609.8702136230469,1233.5588623046874,1233.557880859375,1233.69009765625,204.0,50.0,0.0,0.0,69.73887891820459,10200,39.926714782714846,0.27957550883293153,1.0931670808792113,10200.0,156.40838432312012
-1.5239953994750977,3.580051507949829,-1274.573095703125,39.26348831176758,10250.0,572.3596069335938,1247.00802734375,1247.0036865234374,1247.262109375,205.0,50.0,0.0,0.0,66.26661008449723,10250,39.26348831176758,0.2630506256222725,1.074689848423004,10250.0,157.16291332244873
-1.5239953994750977,3.5607805633544922,-1289.6331201171874,39.24372329711914,10300.0,643.3387585449219,1260.8027001953126,1260.8042626953124,1261.456708984375,206.0,50.0,0.0,0.0,64.36460442730089,10300,39.24372329711914,0.25442477345466613,1.0743716430664063,10300.0,157.9397394657135
-1.5239953994750977,3.5673084831237794,-1302.996533203125,38.57965759277344,10350.0,655.29357421875,1274.9876171875,1274.992666015625,1275.1021435546875,207.0,50.0,0.0,0.0,72.50890996270056,10350,38.57965759277344,0.2685157835483551,1.0550087785720825,10350.0,158.62931156158447
-1.5239953994750977,3.57265118598938,-1319.24669921875,39.17332046508789,10400.0,590.0497839355469,1290.609267578125,1290.601533203125,1290.633388671875,208.0,50.0,0.0,0.0,57.94514923455502,10400,39.17332046508789,0.2560290759801865,1.072332181930542,10400.0,159.49219799041748
-1.5239953994750977,3.5390266609191894,-1332.5081103515624,39.243829803466795,10450.0,621.9139831542968,1303.7063720703125,1303.7180419921874,1304.33126953125,209.0,50.0,0.0,0.0,42.685346716468736,10450,39.243829803466795,0.2698151975870132,1.0739364695549012,10450.0,160.6635618209839
-1.5239953994750977,3.571093397140503,-1349.54041015625,40.87292190551758,10500.0,640.922080078125,1321.7545751953126,1321.76857421875,1321.851396484375,210.0,50.0,0.0,0.0,41.75326306870014,10500,40.87292190551758,0.249107181429863,1.1210721254348754,10500.0,161.86107397079468
-1.5239953994750977,3.528320064544678,-1359.991259765625,40.15345932006836,10550.0,598.706748046875,1332.1306689453124,1332.127880859375,1332.1413916015624,211.0,50.0,0.0,0.0,58.13870384760502,10550,40.15345932006836,0.231567802131176,1.1010171151161194,10550.0,162.7210874557495
-1.5239953994750977,3.5817732620239258,-1375.21861328125,39.856726837158206,10600.0,635.0559545898437,1346.49880859375,1346.491962890625,1346.9014697265625,212.0,50.0,0.0,0.0,63.3051082040432,10600,39.856726837158206,0.2599316745996475,1.0917286372184754,10600.0,163.5109143257141
-1.5239953994750977,3.502393808364868,-1391.3384326171874,40.91656707763672,10650.0,692.308095703125,1362.47267578125,1362.4749755859375,1362.7721240234375,213.0,50.0,0.0,0.0,59.66629130175754,10650,40.91656707763672,0.23661202132701875,1.122676043510437,10650.0,164.34890937805176
-1.5239953994750977,3.4644968700408936,-1402.540986328125,40.35104476928711,10700.0,707.5389868164062,1374.30853515625,1374.31298828125,1374.783603515625,214.0,50.0,0.0,0.0,64.40619458535798,10700,40.35104476928711,0.25572875916957855,1.1059720754623412,10700.0,165.12523341178894
-1.5239953994750977,3.5601582145690918,-1420.625908203125,42.39567626953125,10750.0,703.4324462890625,1392.8506884765625,1392.8628857421875,1393.232333984375,215.0,50.0,0.0,0.0,70.51063550795415,10750,42.39567626953125,0.2634291642904282,1.1641701436042786,10750.0,165.83434748649597
-1.5239953994750977,3.601989498138428,-1431.885546875,40.812289810180665,10800.0,719.8575903320312,1403.4043359375,1403.4075634765625,1403.379326171875,216.0,50.0,0.0,0.0,68.89712469804253,10800,40.812289810180665,0.24946004390716553,1.1193296456336974,10800.0,166.56006836891174
-1.5239953994750977,3.552854537963867,-1444.861806640625,40.201368255615236,10850.0,681.2123913574219,1416.306494140625,1416.2987109375,1416.7231494140624,217.0,50.0,0.0,0.0,72.39637057074722,10850,40.201368255615236,0.26778109014034274,1.1013512563705445,10850.0,167.25071239471436
-1.5239953994750977,3.573729476928711,-1463.0260791015626,41.927621612548826,10900.0,636.4318298339844,1434.9513134765625,1434.9582470703126,1435.0435986328125,218.0,50.0,0.0,0.0,74.56720731381239,10900,41.927621612548826,0.28592443019151687,1.1501543736457824,10900.0,167.9212498664856
-1.5239953994750977,3.5853413009643553,-1473.77142578125,40.66648849487305,10950.0,727.6452758789062,1445.425302734375,1445.42703125,1446.0631298828125,219.0,50.0,0.0,0.0,71.90589616471394,10950,40.66648849487305,0.28083126604557035,1.1145875358581543,10950.0,168.61660432815552
-1.5239953994750977,3.6009152698516846,-1493.73458984375,42.164009704589844,11000.0,701.069150390625,1464.1811376953126,1464.1861328125,1464.0211767578126,220.0,50.0,0.0,0.0,64.85997662488445,11000,42.164009704589844,0.29917874217033386,1.156643660068512,11000.0,169.38749742507935
-1.5239953994750977,3.574209871292114,-1503.9216943359374,41.01329650878906,11050.0,705.7417822265625,1474.8626123046874,1474.8586376953126,1475.7408544921875,221.0,50.0,0.0,0.0,67.111977995779,11050,41.01329650878906,0.27410024642944336,1.1243765020370484,11050.0,170.13252234458923
-1.5239953994750977,3.568529100418091,-1521.2400390625,41.97564224243164,11100.0,814.6819873046875,1493.3636767578125,1493.3757666015624,1493.036650390625,222.0,50.0,0.0,0.0,73.03274255508313,11100,41.97564224243164,0.29646659195423125,1.151225733757019,11100.0,170.81714797019958
-1.5239953994750977,3.5933549880981444,-1535.5488720703124,42.323187561035155,11150.0,708.7248291015625,1506.957392578125,1506.960166015625,1507.246533203125,223.0,50.0,0.0,0.0,66.93985425597451,11150,42.323187561035155,0.27674643337726595,1.1617185020446776,11150.0,171.56408882141113
-1.5239953994750977,3.591854524612427,-1547.5001318359375,42.535809631347654,11200.0,715.7718188476563,1519.4317041015624,1519.4337255859375,1519.8501953125,224.0,50.0,0.0,0.0,74.33000626992136,11200,42.535809631347654,0.2747387802600861,1.1678513741493226,11200.0,172.23676586151123
-1.5239953994750977,3.537654466629028,-1562.0537353515624,41.56506484985351,11250.0,772.6943444824219,1534.334755859375,1534.3429931640626,1534.3968603515625,225.0,50.0,0.0,0.0,70.47573216189222,11250,41.56506484985351,0.24824909776449203,1.140872173309326,11250.0,172.94623112678528
-1.5239953994750977,3.510236587524414,-1576.3206689453125,42.61545028686523,11300.0,710.0816479492188,1548.26224609375,1548.2595263671874,1548.6091796875,226.0,50.0,0.0,0.0,72.0634139569534,11300,42.61545028686523,0.2349083349108696,1.1712642669677735,11300.0,173.64006567001343
-1.5239953994750977,3.568179683685303,-1594.18822265625,44.65081069946289,11350.0,791.48453125,1565.43677734375,1565.4299365234374,1565.8526171875,227.0,50.0,0.0,0.0,65.42447172086334,11350,44.65081069946289,0.24726521968841553,1.2290644526481629,11350.0,174.40430760383606
-1.5239953994750977,3.579709253311157,-1604.596630859375,42.9451872253418,11400.0,734.2195715332032,1575.0377099609375,1575.057421875,1575.2332177734374,228.0,50.0,0.0,0.0,69.45389417013746,11400,42.9451872253418,0.2968523770570755,1.1789155411720276,11400.0,175.12421107292175
-1.5239953994750977,3.520700674057007,-1620.598505859375,42.40941543579102,11450.0,771.4392333984375,1591.98900390625,1591.980556640625,1592.3277978515625,229.0,50.0,0.0,0.0,67.08917735179789,11450,42.40941543579102,0.28537912607192994,1.1639355897903443,11450.0,175.86948919296265
-1.5239953994750977,3.549152011871338,-1636.0433154296875,43.343116455078125,11500.0,823.5466552734375,1606.8665576171875,1606.8577978515625,1607.7120263671875,230.0,50.0,0.0,0.0,76.69954718728364,11500,43.343116455078125,0.26096477746963503,1.191310272216797,11500.0,176.52138471603394
-1.5239953994750977,3.536830005645752,-1652.3917822265626,43.08789016723633,11550.0,762.7280004882813,1622.7923046875,1622.8025,1622.4862646484376,231.0,50.0,0.0,0.0,71.86152051657047,11550,43.08789016723633,0.23099297910928726,1.184874472618103,11550.0,177.21716833114624
-1.5239953994750977,3.5424990272521972,-1663.2535302734375,43.525542755126956,11600.0,720.2205310058594,1633.8275244140625,1633.8247021484376,1634.1614208984374,232.0,50.0,0.0,0.0,70.11698356332289,11600,43.525542755126956,0.2521612399816513,1.1967740964889526,11600.0,177.93026304244995
-1.5239953994750977,3.514289312362671,-1678.788701171875,42.01785003662109,11650.0,731.8343310546875,1650.5125390625,1650.5297900390624,1650.648671875,233.0,50.0,0.0,0.0,78.8791472492092,11650,42.01785003662109,0.2738372653722763,1.1530777740478515,11650.0,178.56414532661438
-1.5239953994750977,3.572402219772339,-1692.3792431640625,42.96753646850586,11700.0,732.7774658203125,1663.43216796875,1663.44001953125,1663.605498046875,234.0,50.0,0.0,0.0,76.47849530987774,11700,42.96753646850586,0.24308661997318268,1.1810902380943298,11700.0,179.217924118042
-1.5239953994750977,3.5376341342926025,-1706.982734375,43.62410400390625,11750.0,806.0123229980469,1677.2079150390625,1677.218779296875,1677.81453125,235.0,50.0,0.0,0.0,72.86200096447428,11750,43.62410400390625,0.28760954439640046,1.198577299118042,11750.0,179.90415406227112
-1.5239953994750977,3.5476822090148925,-1723.146591796875,44.39538421630859,11800.0,837.2315026855468,1695.160185546875,1695.1610302734375,1695.0893896484374,236.0,50.0,0.0,0.0,73.99120637499003,11800,44.39538421630859,0.3148817479610443,1.2198401975631714,11800.0,180.57991194725037
-1.5239953994750977,3.5769758510589598,-1739.5819970703126,45.52274139404297,11850.0,785.9862219238281,1712.2292041015626,1712.218681640625,1712.703837890625,237.0,50.0,0.0,0.0,72.53449029623194,11850,45.52274139404297,0.3330993777513504,1.2515246891975402,11850.0,181.2692403793335
-1.5239953994750977,3.5501016330718995,-1753.7409521484376,44.27339645385742,11900.0,814.1257080078125,1725.169501953125,1725.1753662109375,1725.40341796875,238.0,50.0,0.0,0.0,75.6130177647066,11900,44.27339645385742,0.29492425799369815,1.2169194269180297,11900.0,181.93050384521484
-1.5239953994750977,3.5245344066619873,-1769.9481884765626,44.75676605224609,11950.0,757.8769409179688,1741.039375,1741.0460986328126,1741.4250927734374,239.0,50.0,0.0,0.0,78.3341911992667,11950,44.75676605224609,0.32357356429100037,1.2299114847183228,11950.0,182.56879544258118
-1.5239953994750977,3.5685425186157227,-1783.2111572265626,44.29776931762695,12000.0,755.407958984375,1754.73451171875,1754.7305859375,1755.0374267578125,240.0,50.0,0.0,0.0,74.48314856553083,12000,44.29776931762695,0.32385381519794465,1.2167892837524414,12000.0,183.24008965492249
-1.5239953994750977,3.5465936183929445,-1796.6129150390625,44.43948822021484,12050.0,827.7892578125,1767.7813671875,1767.7868017578126,1767.7215087890625,241.0,50.0,0.0,0.0,69.6543574162066,12050,44.43948822021484,0.2974518156051636,1.2215926790237426,12050.0,183.95792055130005
-1.5239953994750977,3.5163933658599853,-1807.2196826171876,45.43772537231445,12100.0,842.4620092773438,1778.590751953125,1778.592724609375,1778.748818359375,242.0,50.0,0.0,0.0,75.49648752580266,12100,45.43772537231445,0.3041863191127777,1.2499213314056397,12100.0,184.62020444869995
-1.5239953994750977,3.5444380187988282,-1824.1724951171875,45.27596328735351,12150.0,794.1024438476562,1795.651708984375,1795.652353515625,1796.7009521484374,243.0,50.0,0.0,0.0,68.29461143443135,12150,45.27596328735351,0.30964370965957644,1.245143599510193,12150.0,185.35232830047607
-1.5239953994750977,3.6019159984588622,-1843.1154248046876,44.59258331298828,12200.0,821.9754467773438,1813.6258447265625,1813.6357763671874,1813.620966796875,244.0,50.0,0.0,0.0,74.1421679974404,12200,44.59258331298828,0.31253349959850313,1.2255358123779296,12200.0,186.0267095565796
-1.5239953994750977,3.519880704879761,-1856.3366455078126,44.34702117919922,12250.0,815.9514526367187,1827.2769287109375,1827.2784423828125,1827.5248046875,245.0,50.0,0.0,0.0,75.30793397944318,12250,44.34702117919922,0.2686034345626831,1.2197749137878418,12250.0,186.6906509399414
-1.5239953994750977,3.5615721321105958,-1864.8514599609375,43.336841888427735,12300.0,836.4207885742187,1835.2431396484376,1835.2455810546876,1835.49931640625,246.0,50.0,0.0,0.0,68.65367044632782,12300,43.336841888427735,0.2631837433576584,1.1910674929618836,12300.0,187.41894578933716
-1.5239953994750977,3.591817560195923,-1881.103310546875,44.06597274780273,12350.0,806.5453784179688,1851.8857958984374,1851.891123046875,1851.633427734375,247.0,50.0,0.0,0.0,72.51229455906766,12350,44.06597274780273,0.3023176556825638,1.2107816457748413,12350.0,188.1084852218628
-1.5239953994750977,3.530819101333618,-1897.4895947265625,45.192251434326174,12400.0,797.1625219726562,1868.2218408203125,1868.22474609375,1869.030673828125,248.0,50.0,0.0,0.0,73.70075375259708,12400,45.192251434326174,0.27963215857744217,1.2436092519760131,12400.0,188.78690576553345
-1.5239953994750977,3.4998904514312743,-1909.07888671875,45.0751057434082,12450.0,842.6128784179688,1880.4606591796876,1880.4653076171876,1880.687392578125,249.0,50.0,0.0,0.0,66.19787531900991,12450,45.0751057434082,0.28796996116638185,1.2400239729881286,12450.0,189.5422191619873
-1.5239953994750977,3.4950527954101562,-1924.98138671875,44.65311553955078,12500.0,835.1296313476563,1897.498623046875,1897.5041796875,1897.587392578125,250.0,50.0,0.0,0.0,69.59982503400919,12500,44.65311553955078,0.32013926446437835,1.2270480728149413,12500.0,190.26061248779297
-1.5239953994750977,3.528914613723755,-1942.8298388671874,46.571497192382814,12550.0,961.4204663085937,1914.821591796875,1914.815126953125,1915.058505859375,251.0,50.0,0.0,0.0,75.76473665443271,12550,46.571497192382814,0.271864298582077,1.2832383966445924,12550.0,190.92055130004883
-1.5239953994750977,3.4841610050201415,-1955.911171875,46.635251159667966,12600.0,888.325458984375,1927.7403369140625,1927.75435546875,1928.09341796875,252.0,50.0,0.0,0.0,70.77489006557255,12600,46.635251159667966,0.2788758623600006,1.2848596382141113,12600.0,191.62701797485352
-1.5239953994750977,3.543842420578003,-1970.3481982421874,45.67845916748047,12650.0,870.5669506835937,1940.576259765625,1940.5682177734375,1940.7504541015626,253.0,50.0,0.0,0.0,71.78932097427855,12650,45.67845916748047,0.3059955102205276,1.2567477917671204,12650.0,192.32350182533264
-1.5239953994750977,3.494374198913574,-1982.90763671875,46.984628448486326,12700.0,887.022470703125,1954.683486328125,1954.6863330078124,1955.0767236328124,254.0,50.0,0.0,0.0,73.45129519886801,12700,46.984628448486326,0.31055882036685944,1.2939366006851196,12700.0,193.00422620773315
-1.5239953994750977,3.528290786743164,-1999.3010888671874,45.85113006591797,12750.0,933.35423828125,1970.3547021484376,1970.355068359375,1970.5550341796875,255.0,50.0,0.0,0.0,67.42625285745059,12750,45.85113006591797,0.29946168899536135,1.2618679523468017,12750.0,193.74577856063843
-1.5239953994750977,3.4836952018737795,-2012.1475537109375,47.45849685668945,12800.0,987.4510180664063,1985.2846923828124,1985.29044921875,1985.8225,256.0,50.0,0.0,0.0,69.30997125348425,12800,47.45849685668945,0.2893803757429123,1.3080807781219483,12800.0,194.46717619895935
-1.5239953994750977,3.516144218444824,-2025.23708984375,45.21197143554687,12850.0,820.7850439453125,1996.134541015625,1996.1377099609374,1996.2686083984374,257.0,50.0,0.0,0.0,53.33394369188083,12850,45.21197143554687,0.3085368198156357,1.2433469486236572,12850.0,195.4046664237976
-1.5239953994750977,3.5054891681671143,-2037.9601611328126,44.397324066162106,12900.0,909.7539819335938,2008.40576171875,2008.4248974609375,2008.1817626953125,258.0,50.0,0.0,0.0,65.67549886430646,12900,44.397324066162106,0.25270549654960633,1.2216665148735046,12900.0,196.16598629951477
-1.5239953994750977,3.497921371459961,-2058.170703125,47.52129348754883,12950.0,931.2362817382813,2030.33505859375,2030.3172802734375,2031.3285595703126,259.0,50.0,0.0,0.0,69.7306470747836,12950,47.52129348754883,0.31882824838161467,1.3090335321426392,12950.0,196.88303232192993
-1.5239953994750977,3.5216855239868163,-2072.16916015625,47.3015104675293,13000.0,959.6404858398438,2044.345009765625,2044.358134765625,2044.12337890625,260.0,50.0,0.0,0.0,62.9113389394463,13000,47.3015104675293,0.29205028295516966,1.3035191774368287,13000.0,197.67780303955078
-1.5239953994750977,3.495683536529541,-2086.001650390625,47.18526641845703,13050.0,893.8008227539062,2058.794658203125,2058.798154296875,2059.0532080078124,261.0,50.0,0.0,0.0,74.87996686524903,13050,47.18526641845703,0.28237460255622865,1.3004743337631226,13050.0,198.34553956985474
-1.5239953994750977,3.503272228240967,-2101.739580078125,47.131986389160154,13100.0,966.1834716796875,2073.256044921875,2073.261171875,2073.963603515625,262.0,50.0,0.0,0.0,66.72030628668436,13100,47.131986389160154,0.2666077023744583,1.2994025468826294,13100.0,199.09493732452393
-1.5239953994750977,3.4726356506347655,-2114.13396484375,47.5198471069336,13150.0,958.4688598632813,2085.707861328125,2085.702822265625,2086.0451171875,263.0,50.0,0.0,0.0,75.54331772866317,13150,47.5198471069336,0.26642853558063506,1.3104893827438355,13150.0,199.7568109035492
-1.5239953994750977,3.4934537029266357,-2125.46693359375,46.73228149414062,13200.0,952.8580151367188,2098.11908203125,2098.12595703125,2097.945380859375,264.0,50.0,0.0,0.0,74.31151667068848,13200,46.73228149414062,0.28296450853347777,1.2875150203704835,13200.0,200.42965483665466
-1.5239953994750977,3.5264265727996826,-2140.342109375,46.80863006591797,13250.0,901.7736279296874,2111.899462890625,2111.90826171875,2112.14767578125,265.0,50.0,0.0,0.0,68.88307149590574,13250,46.80863006591797,0.33183490991592407,1.288300132751465,13250.0,201.1555233001709
-1.5239953994750977,3.4572747898101808,-2159.897578125,48.2454638671875,13300.0,1011.6985961914063,2132.2932421875,2132.280166015625,2132.64595703125,266.0,50.0,0.0,0.0,69.4230163819161,13300,48.2454638671875,0.32274725317955016,1.3296121835708619,13300.0,201.87574672698975
-1.5239953994750977,3.4848280906677247,-2169.343515625,46.82007598876953,13350.0,983.449091796875,2140.073935546875,2140.075947265625,2140.16240234375,267.0,50.0,0.0,0.0,69.20343609590235,13350,46.82007598876953,0.28985671818256376,1.28982656955719,13350.0,202.59825491905212
-1.5239953994750977,3.4915240001678467,-2182.905302734375,46.964058532714844,13400.0,946.3842578125,2154.988955078125,2154.99560546875,2155.277783203125,268.0,50.0,0.0,0.0,70.43757473163785,13400,46.964058532714844,0.2988188236951828,1.293686170578003,13400.0,203.30810451507568
-1.5239953994750977,3.530403537750244,-2200.787333984375,47.443272552490235,13450.0,976.4265380859375,2171.72150390625,2171.72630859375,2172.345126953125,269.0,50.0,0.0,0.0,69.05340796838986,13450,47.443272552490235,0.27382878243923187,1.3080902194976807,13450.0,204.03218293190002
-1.5239953994750977,3.5214720439910887,-2218.895185546875,49.39575134277344,13500.0,982.4392138671875,2190.35921875,2190.380068359375,2190.47220703125,270.0,50.0,0.0,0.0,71.02895786699615,13500,49.39575134277344,0.2966385418176651,1.3632234239578247,13500.0,204.73612236976624
-1.5239953994750977,3.4813838100433347,-2230.3569921875,48.48260009765625,13550.0,980.328603515625,2202.700498046875,2202.70796875,2202.738740234375,271.0,50.0,0.0,0.0,70.09359507288103,13550,48.48260009765625,0.32566495835781095,1.3363041305541992,13550.0,205.44945573806763
-1.5239953994750977,3.499356536865234,-2240.976591796875,47.39725692749023,13600.0,963.2380102539063,2214.0033203125,2213.992177734375,2214.501708984375,272.0,50.0,0.0,0.0,65.97863416193387,13600,47.39725692749023,0.2957409530878067,1.3061492919921875,13600.0,206.20727849006653
-1.5239953994750977,3.51736328125,-2253.656162109375,47.63803237915039,13650.0,957.72048828125,2225.721767578125,2225.72216796875,2225.883671875,273.0,50.0,0.0,0.0,59.86398130849125,13650,47.63803237915039,0.3076398766040802,1.312688627243042,13650.0,207.04250621795654
-1.5239953994750977,3.463721361160278,-2273.722509765625,48.76673889160156,13700.0,961.8391748046874,2245.770146484375,2245.7705859375,2245.956787109375,274.0,50.0,0.0,0.0,64.97280758227589,13700,48.76673889160156,0.3211105012893677,1.3445525884628295,13700.0,207.81205916404724
-1.5239953994750977,3.504074802398682,-2284.33330078125,47.775767669677734,13750.0,988.64146484375,2257.053896484375,2257.048583984375,2257.524208984375,275.0,50.0,0.0,0.0,72.2898859060796,13750,47.775767669677734,0.2795953357219696,1.3174251890182496,13750.0,208.5037202835083
-1.5239953994750977,3.5216426849365234,-2296.880537109375,49.149840087890624,13800.0,984.6118212890625,2270.003056640625,2270.01990234375,2270.11666015625,276.0,50.0,0.0,0.0,68.07286287152527,13800,49.149840087890624,0.3048531711101532,1.355962691307068,13800.0,209.23822832107544
-1.5239953994750977,3.510498275756836,-2313.387607421875,48.8287776184082,13850.0,956.6501123046875,2286.508701171875,2286.515908203125,2286.830068359375,277.0,50.0,0.0,0.0,68.23270579194144,13850,48.8287776184082,0.34007981479167937,1.3457830286026,13850.0,209.9710156917572
-1.5239953994750977,3.5389151477813723,-2328.6033203125,48.58680480957031,13900.0,988.2434375,2301.980947265625,2301.96755859375,2302.252646484375,278.0,50.0,0.0,0.0,71.69086214576359,13900,48.58680480957031,0.3092642110586166,1.33975115776062,13900.0,210.66845655441284
-1.5239953994750977,3.5254884147644043,-2340.14416015625,48.43929626464844,13950.0,1055.3577758789063,2312.534462890625,2312.53470703125,2312.748037109375,279.0,50.0,0.0,0.0,65.84762388001215,13950,48.43929626464844,0.3377489376068115,1.334722080230713,13950.0,211.42778635025024
-1.5239953994750977,3.4771016216278077,-2351.401708984375,48.36011947631836,14000.0,1026.35703125,2324.47056640625,2324.477412109375,2324.918857421875,280.0,50.0,0.0,0.0,68.72683668744271,14000,48.36011947631836,0.34473882675170897,1.3322597169876098,14000.0,212.15530562400818
-1.5239953994750977,3.514118957519531,-2368.6382421875,48.3440087890625,14050.0,948.2740771484375,2340.6508203125,2340.6605078125,2340.7471484375,281.0,50.0,0.0,0.0,69.25858395780982,14050,48.3440087890625,0.29233539760112764,1.3332966184616089,14050.0,212.87723898887634
-1.5239953994750977,3.5170297908782957,-2382.34138671875,50.322948150634765,14100.0,1077.779794921875,2355.63353515625,2355.63134765625,2355.997373046875,282.0,50.0,0.0,0.0,69.23645026644363,14100,50.322948150634765,0.30371355354785917,1.3895148849487304,14100.0,213.59940433502197
-1.5239953994750977,3.475487804412842,-2399.616416015625,49.207271575927734,14150.0,1029.1986157226563,2371.833232421875,2371.830166015625,2372.13388671875,283.0,50.0,0.0,0.0,70.22860987234857,14150,49.207271575927734,0.3054393908381462,1.358010048866272,14150.0,214.3113658428192
-1.5239953994750977,3.5110115718841555,-2411.117197265625,50.41452438354492,14200.0,1079.4595458984375,2383.307861328125,2383.311513671875,2383.316796875,284.0,50.0,0.0,0.0,75.2176113378475,14200,50.41452438354492,0.3352304261922836,1.3913300132751465,14200.0,214.97610473632812
-1.5239953994750977,3.4623144912719725,-2428.407314453125,49.86757263183594,14250.0,978.1217651367188,2401.336796875,2401.34083984375,2401.248515625,285.0,50.0,0.0,0.0,62.76552952669182,14250,49.86757263183594,0.3421207523345947,1.3754116201400757,14250.0,215.77272152900696
-1.5239953994750977,3.524722204208374,-2434.302646484375,48.73435150146484,14300.0,1106.024990234375,2406.34173828125,2406.35478515625,2406.87322265625,286.0,50.0,0.0,0.0,64.92716579251996,14300,48.73435150146484,0.31598635733127595,1.3437739276885987,14300.0,216.54281663894653
-1.5239953994750977,3.5718951416015625,-2454.965634765625,48.79486633300781,14350.0,1009.832744140625,2426.39365234375,2426.39935546875,2426.85107421875,287.0,50.0,0.0,0.0,78.75793061542402,14350,48.79486633300781,0.3138693714141846,1.3455630350112915,14350.0,217.1776740550995
-1.5239953994750977,3.5475060749053955,-2461.51517578125,47.97911575317383,14400.0,990.2186206054688,2433.723115234375,2433.72431640625,2433.91376953125,288.0,50.0,0.0,0.0,73.49150090517306,14400,47.97911575317383,0.3137271511554718,1.3222598958015441,14400.0,217.85802626609802
-1.5239953994750977,3.438612575531006,-2478.51658203125,50.4352522277832,14450.0,988.6403491210938,2452.67125,2452.669375,2452.710068359375,289.0,50.0,0.0,0.0,68.54513126242026,14450,50.4352522277832,0.3337540099024773,1.391863112449646,14450.0,218.58747363090515
-1.5239953994750977,3.421920213699341,-2493.140263671875,50.344674835205076,14500.0,1098.7088256835937,2466.14869140625,2466.153037109375,2466.16150390625,290.0,50.0,0.0,0.0,67.65165760355002,14500,50.344674835205076,0.29023903369903564,1.390518445968628,14500.0,219.3265552520752
-1.5239953994750977,3.475863914489746,-2504.9983203125,50.68143310546875,14550.0,1090.5435083007812,2478.26580078125,2478.26287109375,2478.86326171875,291.0,50.0,0.0,0.0,70.95412338085258,14550,50.68143310546875,0.3194650912284851,1.399305181503296,14550.0,220.03123664855957
-1.5239953994750977,3.5125210666656494,-2519.8610546875,49.4824006652832,14600.0,1030.1982836914062,2492.20751953125,2492.226162109375,2492.3246484375,292.0,50.0,0.0,0.0,73.50896625212063,14600,49.4824006652832,0.3118747532367706,1.3652638721466064,14600.0,220.71142625808716
-1.5239953994750977,3.484471740722656,-2536.480400390625,51.27599655151367,14650.0,1059.8959399414061,2509.903837890625,2509.895615234375,2509.87720703125,293.0,50.0,0.0,0.0,72.5043475254542,14650,51.27599655151367,0.2963758611679077,1.416952176094055,14650.0,221.4010407924652
-1.5239953994750977,3.4170277309417725,-2549.514326171875,50.0271337890625,14700.0,1093.4859326171875,2523.17755859375,2523.16873046875,2523.769921875,294.0,50.0,0.0,0.0,72.78234692694737,14700,50.0271337890625,0.3174136459827423,1.3806693696975707,14700.0,222.08802151679993
-1.5239953994750977,3.4888343620300293,-2560.332138671875,50.581242370605466,14750.0,997.1006323242187,2533.336455078125,2533.348837890625,2534.184814453125,295.0,50.0,0.0,0.0,72.36664212061338,14750,50.581242370605466,0.3275036001205444,1.3962128353118897,14750.0,222.77894806861877
-1.5239953994750977,3.5021751022338865,-2575.289755859375,50.02213302612304,14800.0,1102.6777587890624,2549.2459375,2549.263125,2548.9648046875,296.0,50.0,0.0,0.0,75.93801271190583,14800,50.02213302612304,0.30225677907466886,1.3809596443176269,14800.0,223.4373812675476
-1.5239953994750977,3.425735673904419,-2589.343486328125,52.101536407470704,14850.0,1086.1017749023438,2563.233681640625,2563.23595703125,2563.562783203125,297.0,50.0,0.0,0.0,67.83536447301856,14850,52.101536407470704,0.3514489388465881,1.4389656734466554,14850.0,224.17446088790894
-1.5239953994750977,3.433581008911133,-2604.93759765625,49.64957229614258,14900.0,1054.0965747070313,2577.93826171875,2577.922841796875,2578.509892578125,298.0,50.0,0.0,0.0,71.38013720194486,14900,49.64957229614258,0.2893515580892563,1.3706837797164917,14900.0,224.87493705749512
-1.5239953994750977,3.4713497829437254,-2621.57671875,50.9003547668457,14950.0,965.390419921875,2595.67955078125,2595.673984375,2595.52462890625,299.0,50.0,0.0,0.0,70.4292480837379,14950,50.9003547668457,0.32286528050899505,1.4054628801345825,14950.0,225.58487010002136
-1.5239953994750977,3.5517188835144045,-2629.995615234375,51.13933837890625,15000.0,1106.4848193359376,2603.735068359375,2603.729296875,2604.32857421875,300.0,50.0,0.0,0.0,72.22896126645354,15000,51.13933837890625,0.32594451785087586,1.41220308303833,15000.0,226.2771143913269
-1.5239953994750977,3.5310437870025635,-2644.46013671875,50.2490885925293,15050.0,1174.40921875,2616.679921875,2616.691943359375,2616.635859375,301.0,50.0,0.0,0.0,67.8738292046683,15050,50.2490885925293,0.3126530772447586,1.387147192955017,15050.0,227.0137758255005
-1.5239953994750977,3.498321895599365,-2658.204423828125,51.21533279418945,15100.0,1138.6099560546875,2632.004248046875,2632.02783203125,2632.1255859375,302.0,50.0,0.0,0.0,69.87637077040362,15100,51.21533279418945,0.3526831567287445,1.4136104154586793,15100.0,227.72932624816895
-1.5239953994750977,3.5173372268676757,-2668.4573828125,49.89229019165039,15150.0,1027.8855419921874,2642.21126953125,2642.214921875,2642.53578125,303.0,50.0,0.0,0.0,68.10319240209212,15150,49.89229019165039,0.28136692225933074,1.3778469467163086,15150.0,228.4635078907013
-1.5239953994750977,3.429765615463257,-2687.8961328125,51.486242065429686,15200.0,1032.7685278320312,2662.12990234375,2662.1274609375,2662.242958984375,304.0,50.0,0.0,0.0,72.74697577323181,15200,51.486242065429686,0.3380741322040558,1.4217679834365844,15200.0,229.15082263946533
-1.5239953994750977,3.463638467788696,-2697.86455078125,49.94395751953125,15250.0,1033.37724609375,2671.164306640625,2671.164404296875,2671.784921875,305.0,50.0,0.0,0.0,70.13769000518386,15250,49.94395751953125,0.3132186129689217,1.3784128856658935,15250.0,229.8637068271637
-1.5239953994750977,3.4453502368927,-2711.492392578125,51.56602981567383,15300.0,1030.3888012695313,2686.018837890625,2686.016123046875,2686.215634765625,306.0,50.0,0.0,0.0,70.86435747378935,15300,51.56602981567383,0.33965285003185275,1.424002432823181,15300.0,230.5692822933197
-1.5239953994750977,3.4859426689147948,-2727.401826171875,52.05025009155273,15350.0,1174.1827124023437,2700.349111328125,2700.36251953125,2700.0141015625,307.0,50.0,0.0,0.0,70.31962429174125,15350,52.05025009155273,0.3415500593185425,1.4377831935882568,15350.0,231.2803225517273
-1.5239953994750977,3.4593568897247313,-2738.7502734375,51.935326690673826,15400.0,1048.258779296875,2711.953662109375,2711.95712890625,2712.349501953125,308.0,50.0,0.0,0.0,70.09460247175028,15400,51.935326690673826,0.3377121567726135,1.4346092462539672,15400.0,231.9936454296112
-1.5239953994750977,3.4296870708465574,-2752.184345703125,50.56501693725586,15450.0,1130.0651220703126,2725.059990234375,2725.055166015625,2725.195107421875,309.0,50.0,0.0,0.0,67.82906761359575,15450,50.56501693725586,0.313397496342659,1.3961522436141969,15450.0,232.7307949066162
-1.5239953994750977,3.491928205490112,-2766.5042578125,52.01718536376953,15500.0,1191.6486938476562,2740.835498046875,2740.83412109375,2741.33349609375,310.0,50.0,0.0,0.0,72.90148792380695,15500,52.01718536376953,0.3560681253671646,1.4364237594604492,15500.0,233.4166522026062
-1.5239953994750977,3.455642967224121,-2781.96791015625,51.77627197265625,15550.0,1126.5992041015625,2754.52607421875,2754.528681640625,2754.9372265625,311.0,50.0,0.0,0.0,62.358762584956544,15550,51.77627197265625,0.3018655723333359,1.4310890817642212,15550.0,234.21846508979797
-1.5239953994750977,3.46850079536438,-2792.3077734375,51.80983093261719,15600.0,1114.0714575195314,2766.471943359375,2766.474111328125,2766.657001953125,312.0,50.0,0.0,0.0,74.82356903606257,15600,51.80983093261719,0.2984562510251999,1.432145357131958,15600.0,234.8867049217224
-1.5239953994750977,3.4983824920654296,-2806.9784765625,52.56778533935547,15650.0,1168.0701733398437,2780.144169921875,2780.148720703125,2780.680458984375,313.0,50.0,0.0,0.0,70.56938331809545,15650,52.56778533935547,0.3176485681533813,1.4532528877258302,15650.0,235.595228433609
-1.5239953994750977,3.479243803024292,-2822.4051171875,53.94609497070312,15700.0,1100.5259912109375,2797.32888671875,2797.3433203125,2797.07681640625,314.0,50.0,0.0,0.0,76.4188293717093,15700,53.94609497070312,0.3318590956926346,1.4922273206710814,15700.0,236.24951887130737
-1.5239953994750977,3.4549389266967774,-2834.836728515625,51.97805633544922,15750.0,1062.0549340820312,2808.92181640625,2808.92009765625,2809.09431640625,315.0,50.0,0.0,0.0,70.62411431588816,15750,51.97805633544922,0.3367943274974823,1.4358568954467774,15750.0,236.9574933052063
-1.5239953994750977,3.476166944503784,-2842.707216796875,52.46291473388672,15800.0,1060.6532983398438,2815.8767578125,2815.88333984375,2815.93904296875,316.0,50.0,0.0,0.0,67.3254904982271,15800,52.46291473388672,0.2979670202732086,1.4508190250396729,15800.0,237.7001554965973
-1.5239953994750977,3.4894652652740477,-2856.355615234375,51.59989761352539,15850.0,1032.4309399414062,2830.31732421875,2830.309140625,2830.961904296875,317.0,50.0,0.0,0.0,72.71837075497835,15850,51.59989761352539,0.32522660195827485,1.4253824663162231,15850.0,238.38774013519287
-1.5239953994750977,3.4257476043701174,-2871.055908203125,51.530601501464844,15900.0,1069.4194580078124,2845.023095703125,2845.026806640625,2845.232939453125,318.0,50.0,0.0,0.0,70.67233262452694,15900,51.530601501464844,0.3252465146780014,1.4234020233154296,15900.0,239.0952320098877
-1.5239953994750977,3.4618015670776368,-2882.412451171875,51.41878173828125,15950.0,1031.5341625976562,2855.6151953125,2855.6137109375,2855.793818359375,319.0,50.0,0.0,0.0,72.4609578803268,15950,51.41878173828125,0.31281120181083677,1.420562472343445,15950.0,239.78526067733765
-1.5239953994750977,3.4574923706054688,-2906.94681640625,54.10670166015625,16000.0,1229.457646484375,2882.550283203125,2882.555908203125,2883.090224609375,320.0,50.0,0.0,0.0,77.86103721799697,16000,54.10670166015625,0.33839683055877684,1.496629033088684,16000.0,240.4274320602417
-1.5239953994750977,3.502583646774292,-2908.340693359375,51.18513870239258,16050.0,1091.9116918945313,2881.45478515625,2881.45794921875,2881.57517578125,321.0,50.0,0.0,0.0,72.33252199394272,16050,51.18513870239258,0.3220947021245956,1.4136216068267822,16050.0,241.11868524551392
-1.5239953994750977,3.4039046478271486,-2924.795517578125,52.28177200317383,16100.0,1075.7260180664061,2898.59931640625,2898.598203125,2898.62615234375,322.0,50.0,0.0,0.0,65.67226996016734,16100,52.28177200317383,0.30994964301586153,1.4453011560440063,16100.0,241.88004302978516
-1.5239953994750977,3.459377508163452,-2936.313828125,51.42950103759765,16150.0,1072.9784521484376,2909.49251953125,2909.5059375,2909.425927734375,323.0,50.0,0.0,0.0,64.14089543620294,16150,51.42950103759765,0.31976190507411956,1.4206702327728271,16150.0,242.65957808494568
-1.5239953994750977,3.472383909225464,-2952.065751953125,51.818824462890625,16200.0,1024.4150537109374,2925.69373046875,2925.69564453125,2926.056806640625,324.0,50.0,0.0,0.0,64.03601635074904,16200,51.818824462890625,0.29887667059898376,1.4323905467987061,16200.0,243.44039034843445
-1.5239953994750977,3.4795984172821046,-2962.613095703125,51.48601425170899,16250.0,1011.00814453125,2936.620830078125,2936.637236328125,2936.622880859375,325.0,50.0,0.0,0.0,70.74688383744846,16250,51.48601425170899,0.3086597663164139,1.4226022005081176,16250.0,244.147136926651
-1.5239953994750977,3.4245027351379393,-2976.966650390625,52.52296524047851,16300.0,1083.62576171875,2950.408544921875,2950.409501953125,2950.60439453125,326.0,50.0,0.0,0.0,67.09516585093988,16300,52.52296524047851,0.3022820693254471,1.4524123191833496,16300.0,244.89234805107117
-1.5239953994750977,3.477180585861206,-2992.051923828125,53.39488494873047,16350.0,1100.6357788085938,2966.123662109375,2966.113642578125,2966.862275390625,327.0,50.0,0.0,0.0,70.4129553133418,16350,53.39488494873047,0.31786958932876586,1.4768784284591674,16350.0,245.6024453639984
-1.5239953994750977,3.4807709407806398,-3008.7119921875,54.56969497680664,16400.0,1036.9878588867186,2983.98521484375,2983.984404296875,2984.340048828125,328.0,50.0,0.0,0.0,71.99945892740598,16400,54.56969497680664,0.330609410405159,1.5100804471969604,16400.0,246.29689598083496
-1.5239953994750977,3.448831844329834,-3015.278349609375,52.032933959960936,16450.0,996.8273193359375,2991.1016015625,2991.10373046875,2991.178505859375,329.0,50.0,0.0,0.0,71.15135377946783,16450,52.032933959960936,0.30974445104598997,1.4381977653503417,16450.0,246.99962401390076
-1.5239953994750977,3.462013874053955,-3027.32583984375,51.98619476318359,16500.0,1035.5797607421875,3002.340869140625,3002.344296875,3002.48025390625,330.0,50.0,0.0,0.0,65.93702071787855,16500,51.98619476318359,0.3080098593235016,1.4369115257263183,16500.0,247.75792455673218
-1.5239953994750977,3.494415340423584,-3038.64404296875,53.48579895019531,16550.0,1011.7229443359375,3013.890185546875,3013.88328125,3014.914462890625,331.0,50.0,0.0,0.0,65.56324972566723,16550,53.48579895019531,0.3359410548210144,1.4789593124389648,16550.0,248.52054810523987
-1.5239953994750977,3.427823295593262,-3052.6350390625,53.8960823059082,16600.0,1109.1577563476562,3027.29064453125,3027.296015625,3027.165283203125,332.0,50.0,0.0,0.0,72.5116426863115,16600,53.8960823059082,0.35283865094184874,1.490199041366577,16600.0,249.21009421348572
-1.5239953994750977,3.512016010284424,-3066.474716796875,52.28519500732422,16650.0,1010.1390014648438,3040.896640625,3040.91451171875,3040.96740234375,333.0,50.0,0.0,0.0,77.89134406499463,16650,52.28519500732422,0.26910102665424346,1.4465665102005005,16650.0,249.8520152568817
-1.5239953994750977,3.402029399871826,-3081.8693359375,54.41054519653321,16700.0,1128.332158203125,3057.283212890625,3057.278720703125,3057.752138671875,334.0,50.0,0.0,0.0,72.84982664248473,16700,54.41054519653321,0.3414657682180405,1.5052227783203125,16700.0,250.53836011886597
-1.5239953994750977,3.4415920543670655,-3092.562958984375,53.05670669555664,16750.0,1042.6898413085937,3067.915634765625,3067.916015625,3068.124130859375,335.0,50.0,0.0,0.0,71.4975311786078,16750,53.05670669555664,0.3822325837612152,1.4653769397735597,16750.0,251.23768663406372
-1.5239953994750977,3.4340327835083007,-3105.6669140625,51.95320770263672,16800.0,1062.3019897460938,3080.196572265625,3080.20169921875,3080.01359375,336.0,50.0,0.0,0.0,74.04910120016525,16800,51.95320770263672,0.2968557518720627,1.4362882375717163,16800.0,251.91291546821594
-1.5239953994750977,3.4338018894195557,-3118.406279296875,53.88750381469727,16850.0,1094.7355981445312,3095.296611328125,3095.291181640625,3095.668369140625,337.0,50.0,0.0,0.0,75.48724800712992,16850,53.88750381469727,0.30904587984085086,1.4912056493759156,16850.0,252.57527995109558
-1.5239953994750977,3.4451154804229738,-3134.23384765625,54.82444641113281,16900.0,1069.0082421875,3110.668310546875,3110.66099609375,3111.131083984375,338.0,50.0,0.0,0.0,74.36432331420284,16900,54.82444641113281,0.3370898115634918,1.5171742153167724,16900.0,253.24764680862427
-1.5239953994750977,3.3776259899139403,-3142.75828125,54.03282684326172,16950.0,1083.5116186523437,3117.47189453125,3117.473583984375,3117.7141015625,339.0,50.0,0.0,0.0,72.10181675157584,16950,54.03282684326172,0.34843439757823946,1.4942318868637086,16950.0,253.9411120414734
-1.5239953994750977,3.456026849746704,-3155.1608203125,53.483766326904295,17000.0,1018.789912109375,3128.474072265625,3128.494755859375,3128.4777734375,340.0,50.0,0.0,0.0,69.95562126229889,17000,53.483766326904295,0.29240542769432065,1.4801457977294923,17000.0,254.65585279464722
-1.5239953994750977,3.5165834712982176,-3168.21595703125,52.972435760498044,17050.0,988.9098583984374,3142.949814453125,3142.954189453125,3142.825947265625,341.0,50.0,0.0,0.0,67.59642348330034,17050,52.972435760498044,0.30862705647945404,1.4650741291046143,17050.0,255.39553833007812
-1.5239953994750977,3.465842456817627,-3183.227509765625,54.54332107543945,17100.0,1081.2849560546874,3158.24568359375,3158.2348046875,3158.774248046875,342.0,50.0,0.0,0.0,68.04969181921575,17100,54.54332107543945,0.3332061493396759,1.5092528820037843,17100.0,256.1302959918976
-1.5239953994750977,3.4875765514373778,-3193.768564453125,53.41005508422852,17150.0,979.6190258789062,3168.251201171875,3168.259638671875,3168.550029296875,343.0,50.0,0.0,0.0,74.95736818270687,17150,53.41005508422852,0.34032801747322083,1.4766701793670653,17150.0,256.7973430156708
-1.5239953994750977,3.4942237377166747,-3206.38650390625,52.98004653930664,17200.0,1030.753740234375,3180.67541015625,3180.681123046875,3180.820419921875,344.0,50.0,0.0,0.0,75.29225242510005,17200,52.98004653930664,0.3234065091609955,1.464868483543396,17200.0,257.46142292022705
-1.5239953994750977,3.412766990661621,-3219.92076171875,53.93764282226562,17250.0,1083.7409643554688,3195.15396484375,3195.15576171875,3196.00861328125,345.0,50.0,0.0,0.0,73.6411523425635,17250,53.93764282226562,0.36387180268764496,1.491074070930481,17250.0,258.1403920650482
-1.5239953994750977,3.4360601902008057,-3228.045146484375,53.71869857788086,17300.0,1015.9983325195312,3202.753310546875,3202.764423828125,3202.90109375,346.0,50.0,0.0,0.0,73.95723275408481,17300,53.71869857788086,0.3263560742139816,1.485888204574585,17300.0,258.8164598941803
-1.5239953994750977,3.447217273712158,-3245.219677734375,52.94429443359375,17350.0,1005.4915234375,3219.966181640625,3219.95763671875,3220.10953125,347.0,50.0,0.0,0.0,72.85261043214065,17350,52.94429443359375,0.29985241949558256,1.464520173072815,17350.0,259.50277853012085
-1.5239953994750977,3.4876996231079103,-3258.51189453125,55.15128051757812,17400.0,1087.0776025390626,3234.2554296875,3234.25412109375,3234.140634765625,348.0,50.0,0.0,0.0,77.8682069369343,17400,55.15128051757812,0.3462303930521011,1.5262514686584472,17400.0,260.14488983154297
-1.5239953994750977,3.460074882507324,-3268.822822265625,54.297317352294925,17450.0,1027.14111328125,3245.228408203125,3245.220947265625,3245.850205078125,349.0,50.0,0.0,0.0,72.59078035836548,17450,54.297317352294925,0.33858028054237366,1.5021858835220336,17450.0,260.8336832523346
-1.5239953994750977,3.486191387176514,-3277.989658203125,52.623480072021486,17500.0,949.2459448242188,3252.46134765625,3252.465869140625,3252.520546875,350.0,50.0,0.0,0.0,69.30147392923435,17500,52.623480072021486,0.3238097107410431,1.4546762609481811,17500.0,261.55516958236694
-1.5239953994750977,3.4843463993072508,-3294.087451171875,53.32055038452148,17550.0,960.603916015625,3269.066943359375,3269.079150390625,3268.79509765625,351.0,50.0,0.0,0.0,47.32136913791769,17550,53.32055038452148,0.29959709107875826,1.4752764701843262,17550.0,262.61177706718445
-1.5239953994750977,3.479275007247925,-3310.73751953125,55.72692352294922,17600.0,906.29599609375,3286.015771484375,3286.018623046875,3286.51228515625,352.0,50.0,0.0,0.0,68.6880067706989,17600,55.72692352294922,0.28391882717609407,1.544477529525757,17600.0,263.3397078514099
-1.5239953994750977,3.4711087131500244,-3318.65619140625,55.66048141479492,17650.0,1011.4682250976563,3293.463271484375,3293.4673046875,3293.890263671875,353.0,50.0,0.0,0.0,62.95766711467342,17650,55.66048141479492,0.3285156959295273,1.5413049840927124,17650.0,264.1338939666748
-1.5239953994750977,3.4713048458099367,-3329.556513671875,52.76724884033203,17700.0,976.8656201171875,3304.932080078125,3304.93029296875,3304.9993359375,354.0,50.0,0.0,0.0,72.2024275747148,17700,52.76724884033203,0.3100089579820633,1.459169969558716,17700.0,264.8263957500458
-1.5239953994750977,3.431262130737305,-3345.192744140625,53.94271987915039,17750.0,1050.9117919921875,3321.187626953125,3321.18775390625,3321.33767578125,355.0,50.0,0.0,0.0,70.68159826574691,17750,53.94271987915039,0.3367811542749405,1.4919899797439575,17750.0,265.53379487991333
-1.5239953994750977,3.433709421157837,-3353.516220703125,54.94583969116211,17800.0,918.1298950195312,3329.164169921875,3329.164541015625,3329.268193359375,356.0,50.0,0.0,0.0,71.17895645025692,17800,54.94583969116211,0.31806788325309754,1.5211853218078613,17800.0,266.2362554073334
-1.5239953994750977,3.4667306613922118,-3369.929541015625,55.142450408935545,17850.0,1030.7824829101562,3346.386806640625,3346.38283203125,3346.6556640625,357.0,50.0,0.0,0.0,75.6985272884782,17850,55.142450408935545,0.33034147322177887,1.5264521741867065,17850.0,266.8967707157135
-1.5239953994750977,3.450671672821045,-3377.882236328125,54.932441558837894,17900.0,1025.2007080078124,3353.584033203125,3353.58919921875,3354.13220703125,358.0,50.0,0.0,0.0,68.55057583867038,17900,54.932441558837894,0.3114362835884094,1.5209920263290406,17900.0,267.62615990638733
-1.5239953994750977,3.4620986461639403,-3392.29814453125,55.67249633789063,17950.0,991.762197265625,3368.9279296875,3368.930224609375,3368.9798828125,359.0,50.0,0.0,0.0,75.8969540999661,17950,55.67249633789063,0.37611829161643984,1.5402883911132812,17950.0,268.2849495410919
-1.5239953994750977,3.4645362949371337,-3406.491357421875,53.75776718139648,18000.0,1016.8060961914063,3383.06287109375,3383.077099609375,3383.243271484375,360.0,50.0,0.0,0.0,74.75827414656266,18000,53.75776718139648,0.32663112103939057,1.4869962882995607,18000.0,268.95377254486084
-1.5239953994750977,3.4916021823883057,-3415.387880859375,55.0623291015625,18050.0,940.4191845703125,3391.362021484375,3391.358896484375,3391.5016015625,361.0,50.0,0.0,0.0,73.6593615597653,18050,55.0623291015625,0.355948668718338,1.5234316158294678,18050.0,269.63257360458374
-1.5239953994750977,3.4402527523040773,-3428.3037890625,56.97540908813477,18100.0,964.1216137695312,3405.76693359375,3405.77345703125,3406.205302734375,362.0,50.0,0.0,0.0,79.11780795044272,18100,56.97540908813477,0.34648174941539767,1.578361644744873,18100.0,270.2645425796509
-1.5239953994750977,3.420507164001465,-3442.003779296875,55.419823455810544,18150.0,1077.598076171875,3419.54990234375,3419.5598828125,3419.2641015625,363.0,50.0,0.0,0.0,74.3999917694101,18150,55.419823455810544,0.3615745332837105,1.5334848070144653,18150.0,270.9365863800049
-1.5239953994750977,3.4331134700775148,-3454.347109375,55.56700012207031,18200.0,1013.7352368164062,3430.455048828125,3430.451953125,3430.799482421875,364.0,50.0,0.0,0.0,72.40769378702771,18200,55.56700012207031,0.324351801276207,1.5387532997131348,18200.0,271.6271216869354
-1.5239953994750977,3.455455379486084,-3463.39,55.14249694824219,18250.0,1014.2802587890625,3440.642041015625,3440.636806640625,3440.781875,365.0,50.0,0.0,0.0,75.5089100897004,18250,55.14249694824219,0.34684320986270906,1.5259822273254395,18250.0,272.28929591178894
-1.5239953994750977,3.4636978626251222,-3476.393193359375,56.75993927001953,18300.0,1035.21380859375,3453.3993359375,3453.39416015625,3453.53955078125,366.0,50.0,0.0,0.0,71.18840375054567,18300,56.75993927001953,0.3462579697370529,1.5722116041183472,18300.0,272.9916591644287
-1.5239953994750977,3.429684352874756,-3488.558662109375,55.8232844543457,18350.0,1020.321015625,3464.269833984375,3464.271494140625,3464.768203125,367.0,50.0,0.0,0.0,76.95035942423141,18350,55.8232844543457,0.34431793451309206,1.5455058240890502,18350.0,273.64142894744873
-1.5239953994750977,3.5058174419403074,-3499.559365234375,55.50618072509766,18400.0,975.6183959960938,3474.269228515625,3474.2679296875,3474.617421875,368.0,50.0,0.0,0.0,69.69854986342135,18400,55.50618072509766,0.32700338363647463,1.5369807815551757,18400.0,274.35880494117737
-1.5239953994750977,3.450513734817505,-3514.2874609375,56.176612854003906,18450.0,1009.8779760742187,3489.702353515625,3489.72453125,3489.579541015625,369.0,50.0,0.0,0.0,74.93029165314898,18450,56.176612854003906,0.2996802866458893,1.5569102478027343,18450.0,275.02609300613403
-1.5239953994750977,3.5028855323791506,-3521.80099609375,54.79451431274414,18500.0,966.4561254882813,3497.47865234375,3497.48470703125,3497.876611328125,370.0,50.0,0.0,0.0,67.75081653684997,18500,54.79451431274414,0.3255634528398514,1.5166497230529785,18500.0,275.7640926837921
-1.5239953994750977,3.4240683555603026,-3538.844375,56.215982055664064,18550.0,963.8432958984375,3515.984130859375,3515.975556640625,3515.940927734375,371.0,50.0,0.0,0.0,70.90391373407651,18550,56.215982055664064,0.30789353251457213,1.5577658081054688,18550.0,276.4692733287811
-1.5239953994750977,3.451753396987915,-3547.02392578125,56.29512588500977,18600.0,921.7667456054687,3522.733525390625,3522.734306640625,3523.32986328125,372.0,50.0,0.0,0.0,70.26844823530752,18600,56.29512588500977,0.3267285460233688,1.5594888019561768,18600.0,277.18083238601685
-1.5239953994750977,3.4534275054931642,-3556.57576171875,56.10508056640625,18650.0,971.8970825195313,3532.57275390625,3532.577158203125,3532.346943359375,373.0,50.0,0.0,0.0,68.7088906857548,18650,56.10508056640625,0.35872010052204134,1.5531450843811034,18650.0,277.90854120254517
-1.5239953994750977,3.410596866607666,-3572.942705078125,56.528367614746095,18700.0,933.47314453125,3551.029091796875,3551.033408203125,3551.170556640625,374.0,50.0,0.0,0.0,72.42589834240634,18700,56.528367614746095,0.34715427458286285,1.5655692577362061,18700.0,278.5989031791687
-1.5239953994750977,3.514822883605957,-3580.23453125,54.99094467163086,18750.0,978.5630541992188,3557.18314453125,3557.1842578125,3557.726630859375,375.0,50.0,0.0,0.0,66.55326668122248,18750,54.99094467163086,0.35093973457813266,1.5215347719192505,18750.0,279.35018157958984
-1.5239953994750977,3.4808155918121337,-3595.4895703125,57.034325714111326,18800.0,917.8387548828125,3571.853466796875,3571.84462890625,3572.020419921875,376.0,50.0,0.0,0.0,80.75268212703398,18800,57.034325714111326,0.3298200500011444,1.5805208444595338,18800.0,279.96935653686523
-1.5239953994750977,3.4271874237060547,-3603.01689453125,54.92724456787109,18850.0,899.6474780273437,3578.97748046875,3578.978857421875,3579.50392578125,377.0,50.0,0.0,0.0,70.89518887448776,18850,54.92724456787109,0.35028581857681274,1.519733624458313,18850.0,280.67462396621704
-1.5239953994750977,3.4232859325408938,-3620.526923828125,57.35797882080078,18900.0,944.8766918945313,3597.85615234375,3597.86123046875,3598.032705078125,378.0,50.0,0.0,0.0,65.1444007211649,18900,57.35797882080078,0.3476602077484131,1.5892582798004151,18900.0,281.44215083122253
-1.5239953994750977,3.4700647449493407,-3626.673447265625,55.85593322753906,18950.0,989.8552368164062,3604.195322265625,3604.2140234375,3603.69654296875,379.0,50.0,0.0,0.0,58.929356213238556,18950,55.85593322753906,0.3247815555334091,1.5469964933395386,18950.0,282.29062485694885
-1.5239953994750977,3.4190969276428222,-3638.920009765625,56.98914642333985,19000.0,958.6393994140625,3617.015859375,3617.004873046875,3617.600771484375,380.0,50.0,0.0,0.0,75.51432075524691,19000,56.98914642333985,0.36565170824527743,1.5782063722610473,19000.0,282.9527516365051
-1.5239953994750977,3.451103200912476,-3654.027060546875,59.1523503112793,19050.0,925.8606762695313,3631.979111328125,3631.97177734375,3632.15548828125,381.0,50.0,0.0,0.0,67.97760694027966,19050,59.1523503112793,0.36400184512138367,1.6400594043731689,19050.0,283.6882894039154
-1.5239953994750977,3.513766355514526,-3659.9316796875,56.07121963500977,19100.0,926.0650634765625,3636.15197265625,3636.1698828125,3636.565751953125,382.0,50.0,0.0,0.0,70.99370784736749,19100,56.07121963500977,0.3490811038017273,1.5524534320831298,19100.0,284.39257860183716
-1.5239953994750977,3.447787208557129,-3678.42109375,57.35718994140625,19150.0,976.551943359375,3656.24212890625,3656.249833984375,3656.41294921875,383.0,50.0,0.0,0.0,75.26833711741368,19150,57.35718994140625,0.3588633906841278,1.5889154720306395,19150.0,285.0568697452545
-1.5239953994750977,3.4941125392913817,-3682.943466796875,56.220165710449216,19200.0,916.4694189453126,3659.595625,3659.59091796875,3659.94146484375,384.0,50.0,0.0,0.0,71.46483431889953,19200,56.220165710449216,0.3485910105705261,1.556723051071167,19200.0,285.756516456604
-1.5239953994750977,3.4750914764404297,-3696.4089453125,54.82594741821289,19250.0,922.8640869140625,3672.68494140625,3672.685,3672.43189453125,385.0,50.0,0.0,0.0,76.16136759486977,19250,54.82594741821289,0.342146058678627,1.5170723724365234,19250.0,286.41301822662354
-1.5239953994750977,3.4796594524383546,-3704.8374609375,55.178153381347656,19300.0,947.6997583007812,3681.270859375,3681.25251953125,3681.8892578125,386.0,50.0,0.0,0.0,64.86994781085208,19300,55.178153381347656,0.3120275953412056,1.5279967784881592,19300.0,287.1837935447693
-1.5239953994750977,3.5115720653533935,-3722.179619140625,57.45608200073242,19350.0,1032.144462890625,3698.667626953125,3698.674521484375,3698.893642578125,387.0,50.0,0.0,0.0,72.83451960138059,19350,57.45608200073242,0.3465654891729355,1.5920933771133423,19350.0,287.8702816963196
-1.5239953994750977,3.4888613033294678,-3733.671171875,57.63517333984375,19400.0,970.3564672851562,3711.205517578125,3711.228115234375,3711.017373046875,388.0,50.0,0.0,0.0,71.00464459283126,19400,57.63517333984375,0.3772836440801621,1.5963326978683472,19400.0,288.5744619369507
-1.5239953994750977,3.49448823928833,-3744.882470703125,57.18016311645508,19450.0,886.0777880859375,3721.737216796875,3721.7366796875,3721.788330078125,389.0,50.0,0.0,0.0,72.87344499270276,19450,57.18016311645508,0.35992504715919493,1.5838283061981202,19450.0,289.26058411598206
-1.5239953994750977,3.468596324920654,-3755.6799609375,56.47226837158203,19500.0,910.5182202148437,3732.010546875,3731.990234375,3732.562763671875,390.0,50.0,0.0,0.0,67.84710564261304,19500,56.47226837158203,0.37753732442855836,1.563099422454834,19500.0,289.99753618240356
-1.5239953994750977,3.440070781707764,-3763.574111328125,57.848985290527345,19550.0,979.6714697265625,3740.32509765625,3740.327431640625,3740.67408203125,391.0,50.0,0.0,0.0,60.850298803509276,19550,57.848985290527345,0.34446717977523805,1.6033788537979126,19550.0,290.81922602653503
-1.5239953994750977,3.491434259414673,-3775.79828125,56.73694000244141,19600.0,918.984658203125,3753.06345703125,3753.072392578125,3752.955830078125,392.0,50.0,0.0,0.0,65.69382942519402,19600,56.73694000244141,0.36394758999347687,1.5710493516921997,19600.0,291.5803339481354
-1.5239953994750977,3.4758566093444823,-3792.286865234375,59.11234298706054,19650.0,880.0765161132813,3769.631455078125,3769.64517578125,3769.891591796875,393.0,50.0,0.0,0.0,67.40011878530456,19650,59.11234298706054,0.35960216999053957,1.6390425205230712,19650.0,292.3221745491028
-1.5239953994750977,3.446571636199951,-3795.12322265625,55.86041519165039,19700.0,956.3433959960937,3771.0996484375,3771.113359375,3770.96794921875,394.0,50.0,0.0,0.0,74.859920005283,19700,55.86041519165039,0.3325381803512573,1.5469042825698853,19700.0,292.9900891780853
-1.5239953994750977,3.450107831954956,-3809.8883984375,56.12198471069336,19750.0,926.1791430664063,3786.607890625,3786.609658203125,3787.063408203125,395.0,50.0,0.0,0.0,74.52767025690815,19750,56.12198471069336,0.3380475914478302,1.5542194271087646,19750.0,293.660982131958
-1.5239953994750977,3.4387921047210694,-3823.139765625,57.97242126464844,19800.0,907.380703125,3800.3788671875,3800.367724609375,3800.539765625,396.0,50.0,0.0,0.0,72.84023685080678,19800,57.97242126464844,0.35408197700977323,1.6066324424743652,19800.0,294.3474175930023
-1.5239953994750977,3.4764474868774413,-3832.79220703125,56.38978652954101,19850.0,874.9724609375,3808.456123046875,3808.45859375,3808.729736328125,397.0,50.0,0.0,0.0,69.8540731932356,19850,56.38978652954101,0.3725115567445755,1.5608875846862793,19850.0,295.063196182251
-1.5239953994750977,3.483730869293213,-3843.63408203125,56.167225494384766,19900.0,855.7917785644531,3820.9484375,3820.944638671875,3820.7490625,398.0,50.0,0.0,0.0,66.52976761316934,19900,56.167225494384766,0.3135580909252167,1.5562126636505127,19900.0,295.81474018096924
-1.5239953994750977,3.459912672042847,-3855.03736328125,56.804150085449216,19950.0,885.3250866699219,3832.70681640625,3832.70740234375,3833.276494140625,399.0,50.0,0.0,0.0,67.8853199976564,19950,56.804150085449216,0.36814686298370364,1.5728501605987548,19950.0,296.5512776374817
-1.5239953994750977,3.482881813049316,-3866.334990234375,57.960989990234374,20000.0,914.693271484375,3843.8941015625,3843.88873046875,3844.314892578125,400.0,50.0,0.0,0.0,71.01147275314246,20000,57.960989990234374,0.34308855414390566,1.6066197872161865,20000.0,297.25538992881775
-1.5239953994750977,3.4776745891571044,-3877.0358203125,57.49612121582031,20050.0,913.5546264648438,3854.75865234375,3854.7651953125,3854.934208984375,401.0,50.0,0.0,0.0,2.108127841117106,20050,57.49612121582031,0.321012145280838,1.5939702272415162,20050.0,320.9731180667877
-1.5239953994750977,3.4594447803497315,-3891.875380859375,59.08398727416992,20100.0,861.975263671875,3869.447470703125,3869.462734375,3869.396904296875,402.0,50.0,0.0,0.0,75.04875847502815,20100,59.08398727416992,0.319608633518219,1.6393756484985351,20100.0,321.63935256004333
-1.5239953994750977,3.4932810401916505,-3901.9658203125,59.495311431884765,20150.0,917.0766528320313,3880.766279296875,3880.765146484375,3880.85169921875,403.0,50.0,0.0,0.0,78.50141662889115,20150,59.495311431884765,0.31940237879753114,1.65113308429718,20150.0,322.27628445625305
-1.5239953994750977,3.406535797119141,-3910.955263671875,58.38228179931641,20200.0,902.2317993164063,3889.61951171875,3889.628623046875,3889.788369140625,404.0,50.0,0.0,0.0,64.26340386269527,20200,58.38228179931641,0.3599842572212219,1.6181730937957763,20200.0,323.0543339252472
-1.5239953994750977,3.478244619369507,-3922.766396484375,55.84693176269531,20250.0,833.636982421875,3900.316640625,3900.32986328125,3900.319208984375,405.0,50.0,0.0,0.0,60.03325778908699,20250,55.84693176269531,0.31552497267723084,1.5470057868957519,20250.0,323.8872067928314
-1.5239953994750977,3.4875033569335936,-3936.173759765625,58.9918293762207,20300.0,865.1514965820312,3916.18109375,3916.190927734375,3916.29203125,406.0,50.0,0.0,0.0,52.47051405867665,20300,58.9918293762207,0.3923246294260025,1.6346676969528198,20300.0,324.840124130249
-1.5239953994750977,3.435901927947998,-3943.104541015625,57.6747265625,20350.0,870.3082739257812,3921.517734375,3921.510361328125,3921.770498046875,407.0,50.0,0.0,0.0,41.70486352441208,20350,57.6747265625,0.37463077902793884,1.597540807723999,20350.0,326.03902649879456
-1.5239953994750977,3.4861286067962647,-3955.64884765625,57.67423675537109,20400.0,873.0944409179688,3933.325654296875,3933.31111328125,3933.538330078125,408.0,50.0,0.0,0.0,51.11601299622446,20400,57.67423675537109,0.3593308937549591,1.5979627418518065,20400.0,327.0171949863434
-1.5239953994750977,3.445390920639038,-3968.627119140625,59.79335586547852,20450.0,915.19330078125,3947.5840625,3947.576083984375,3947.96619140625,409.0,50.0,0.0,0.0,42.01571037266056,20450,59.79335586547852,0.38690428137779237,1.6577218008041381,20450.0,328.2072277069092
-1.5239953994750977,3.3965189456939697,-3979.291201171875,59.281755981445315,20500.0,944.7430859375,3958.307138671875,3958.293349609375,3959.026337890625,410.0,50.0,0.0,0.0,61.290663861002734,20500,59.281755981445315,0.36815047144889834,1.6436413145065307,20500.0,329.0230143070221
-1.5239953994750977,3.4663046836853026,-3989.2426171875,57.999955596923826,20550.0,860.6660815429688,3968.144150390625,3968.16396484375,3967.826640625,411.0,50.0,0.0,0.0,46.219305619040355,20550,57.999955596923826,0.3865450644493103,1.6064938974380494,20550.0,330.1048152446747
-1.5239953994750977,3.5120164203643798,-3997.61849609375,56.87744247436523,20600.0,791.3790112304688,3975.90669921875,3975.910859375,3975.648515625,412.0,50.0,0.0,0.0,28.457876710469893,20600,56.87744247436523,0.353782976269722,1.5753568077087403,20600.0,331.86179876327515
-1.5239953994750977,3.439929275512695,-4011.3314453125,57.643009948730466,20650.0,881.9315966796875,3989.204951171875,3989.201044921875,3990.0030859375,413.0,50.0,0.0,0.0,66.36155852605111,20650,57.643009948730466,0.33862617433071135,1.5976640510559081,20650.0,332.61524772644043
-1.5239953994750977,3.444430027008057,-4021.428759765625,57.425896911621095,20700.0,844.3550903320313,3998.95943359375,3998.9674609375,3999.30228515625,414.0,50.0,0.0,0.0,62.039125894502675,20700,57.425896911621095,0.3472862201929092,1.5912140464782716,20700.0,333.4211919307709
-1.5239953994750977,3.4547861576080323,-4034.143134765625,58.26531112670899,20750.0,911.2909057617187,4012.61568359375,4012.61994140625,4012.267392578125,415.0,50.0,0.0,0.0,59.04200659578385,20750,58.26531112670899,0.3645745325088501,1.6147044849395753,20750.0,334.2680473327637
-1.5239953994750977,3.442764301300049,-4043.646494140625,59.78100326538086,20800.0,803.2840380859375,4022.40099609375,4022.398818359375,4022.663232421875,416.0,50.0,0.0,0.0,61.98657143634083,20800,59.78100326538086,0.3730565893650055,1.6577663469314574,20800.0,335.074675321579
-1.5239953994750977,3.4776817321777345,-4049.88798828125,57.14143310546875,20850.0,783.2434350585937,4027.17607421875,4027.1873046875,4027.472197265625,417.0,50.0,0.0,0.0,37.11596083019042,20850,57.14143310546875,0.3712898707389832,1.5823989820480346,20850.0,336.42180609703064
-1.5239953994750977,3.489322557449341,-4067.583193359375,59.51669158935547,20900.0,830.0926745605469,4046.68375,4046.6781640625,4046.866630859375,418.0,50.0,0.0,0.0,69.65542163552495,20900,59.51669158935547,0.4207602375745773,1.6488513088226318,20900.0,337.13962721824646
-1.5239953994750977,3.49794340133667,-4078.116513671875,59.91451721191406,20950.0,800.1412622070312,4056.9584765625,4056.950029296875,4057.141650390625,419.0,50.0,0.0,0.0,69.30248158924816,20950,59.91451721191406,0.433845282793045,1.6598415517807006,20950.0,337.8611035346985
-1.5239953994750977,3.4490318870544434,-4086.05453125,59.14302474975586,21000.0,739.8702893066406,4064.432548828125,4064.4403515625,4064.612490234375,420.0,50.0,0.0,0.0,67.20172064952469,21000,59.14302474975586,0.37039555311203004,1.6396126556396484,21000.0,338.6051332950592
-1.5239953994750977,3.4394069480895997,-4096.40275390625,58.803907775878905,21050.0,768.5680859375,4074.59494140625,4074.602421875,4074.498154296875,421.0,50.0,0.0,0.0,67.96930097490147,21050,58.803907775878905,0.3610681074857712,1.630192255973816,21050.0,339.3407607078552
-1.5239953994750977,3.5029182052612304,-4108.129814453125,58.26626205444336,21100.0,860.3302685546874,4086.50798828125,4086.5005859375,4087.1836328125,422.0,50.0,0.0,0.0,67.16289520593527,21100,58.26626205444336,0.3776933133602142,1.6143562841415404,21100.0,340.08522057533264
-1.5239953994750977,3.425853214263916,-4118.13916015625,59.392313690185546,21150.0,822.7170532226562,4095.908720703125,4095.92240234375,4095.956416015625,423.0,50.0,0.0,0.0,61.66811783549715,21150,59.392313690185546,0.40582932710647585,1.645724778175354,21150.0,340.89601373672485
-1.5239953994750977,3.401528043746948,-4128.4745703125,58.488225860595705,21200.0,838.214931640625,4107.43259765625,4107.437158203125,4107.178798828125,424.0,50.0,0.0,0.0,70.6704273953584,21200,58.488225860595705,0.3949075835943222,1.6202091455459595,21200.0,341.60352420806885
-1.5239953994750977,3.4803766345977785,-4136.79716796875,57.41876754760742,21250.0,785.15046875,4114.474873046875,4114.4754296875,4115.30208984375,425.0,50.0,0.0,0.0,67.7914643899178,21250,57.41876754760742,0.38572795867919923,1.589910078048706,21250.0,342.3410813808441
-1.5239953994750977,3.455101900100708,-4151.00955078125,60.04929183959961,21300.0,782.60259765625,4129.1193359375,4129.128046875,4128.81814453125,426.0,50.0,0.0,0.0,72.16953000978364,21300,60.04929183959961,0.3724593311548233,1.665447416305542,21300.0,343.0338954925537
-1.5239953994750977,3.5021117305755616,-4161.82423828125,60.23778823852539,21350.0,905.6139697265625,4140.24361328125,4140.2469921875,4140.351796875,427.0,50.0,0.0,0.0,70.93929058409215,21350,60.23778823852539,0.395312539935112,1.6701790809631347,21350.0,343.73872566223145
-1.5239953994750977,3.4564117908477785,-4173.06173828125,59.38520172119141,21400.0,718.0390637207031,4152.293125,4152.28119140625,4152.36486328125,428.0,50.0,0.0,0.0,69.97847408598287,21400,59.38520172119141,0.38512115240097045,1.6461130475997925,21400.0,344.4532325267792
-1.5239953994750977,3.4879437065124512,-4181.44919921875,59.61680953979492,21450.0,820.9461767578125,4160.1056640625,4160.10607421875,4160.32599609375,429.0,50.0,0.0,0.0,68.85884827886699,21450,59.61680953979492,0.3751595991849899,1.653014931678772,21450.0,345.1793587207794
-1.5239953994750977,3.4939111709594726,-4191.580625,58.784017181396486,21500.0,766.195869140625,4169.11650390625,4169.10736328125,4169.4080078125,430.0,50.0,0.0,0.0,69.41102214802441,21500,58.784017181396486,0.35627740442752837,1.629760422706604,21500.0,345.899706363678
-1.5239953994750977,3.4884414577484133,-4200.02724609375,57.751842651367184,21550.0,863.6925366210937,4177.81470703125,4177.820703125,4178.44654296875,431.0,50.0,0.0,0.0,69.65266861316874,21550,57.751842651367184,0.3731897646188736,1.5997875118255616,21550.0,346.6175549030304
-1.5239953994750977,3.4188747024536132,-4212.8080078125,59.0021257019043,21600.0,820.2856274414063,4191.8737109375,4191.8860546875,4191.64517578125,432.0,50.0,0.0,0.0,68.11661941290133,21600,59.0021257019043,0.40422749996185303,1.63462140083313,21600.0,347.3515920639038
-1.5239953994750977,3.4305083465576174,-4219.864140625,58.261468658447264,21650.0,862.2207543945312,4198.592421875,4198.584921875,4199.24544921875,433.0,50.0,0.0,0.0,73.59424820344088,21650,58.261468658447264,0.38354853868484495,1.6140499019622803,21650.0,348.0309941768646
-1.5239953994750977,3.4950703144073487,-4232.09138671875,58.17277145385742,21700.0,844.6039135742187,4209.7903125,4209.79353515625,4209.594375,434.0,50.0,0.0,0.0,70.88323163549259,21700,58.17277145385742,0.3674254548549652,1.6119744729995729,21700.0,348.73638105392456
-1.5239953994750977,3.4755128955841066,-4242.9912890625,59.60583862304688,21750.0,761.8862353515625,4222.00423828125,4222.01146484375,4222.12029296875,435.0,50.0,0.0,0.0,67.76883486445762,21750,59.60583862304688,0.39474085450172425,1.6521388864517212,21750.0,349.47418451309204
-1.5239953994750977,3.473147945404053,-4254.5938671875,59.53449661254883,21800.0,780.2388330078124,4233.13908203125,4233.14150390625,4233.36923828125,436.0,50.0,0.0,0.0,73.03676126162992,21800,59.53449661254883,0.40636486172676084,1.6497903299331664,21800.0,350.1587724685669
-1.5239953994750977,3.4241261959075926,-4265.1457421875,61.02562759399414,21850.0,823.1843090820313,4244.28640625,4244.292109375,4244.187578125,437.0,50.0,0.0,0.0,67.5756658878467,21850,61.02562759399414,0.41400808215141294,1.6932229423522949,21850.0,350.8986847400665
